(G-CODE GENERATED BY FLATCAM v8.991 - www.flatcam.org - Version Date: 2019/12/27)

(Name: Drill_PTH_Through.DRL_cnc)
(Type: G-code from Excellon)
(Units: MM)

(Created on Thursday, 11 July 2024 at 15:57)

(Feedrate: 300.0 mm/min)
(Feedrate rapids 1500.0 mm/min)

(Z_Cut: -2.2 mm)
(Z_Move: 2.0 mm)
(Z Toolchange: 15.0 mm)
(X,Y Toolchange: 0.00, 0.00 mm)
(Z Start: None mm)
(Z End: 0.5 mm)
(Steps per circle: 64)
(Preprocessor Excellon: default)

(X range:    3.4645 ...   25.8115  mm)
(Y range:    2.8295 ...   36.1345  mm)

(Spindle Speed: None RPM)
G21
G90
G94




G01 F300.00
G00 Z2.0000

M03
G00 X24.3080 Y35.4840
G01 Z-2.2000
G01 Z0
G00 Z2.0000
G00 X24.3080 Y30.4040
G01 Z-2.2000
G01 Z0
G00 Z2.0000
G00 X24.3080 Y25.3240
G01 Z-2.2000
G01 Z0
G00 Z2.0000
G00 X24.8160 Y17.5410
G01 Z-2.2000
G01 Z0
G00 Z2.0000
G00 X24.8160 Y12.5330
G01 Z-2.2000
G01 Z0
G00 Z2.0000
G00 X25.1610 Y3.4800
G01 Z-2.2000
G01 Z0
G00 Z2.0000
G00 X20.1530 Y3.4800
G01 Z-2.2000
G01 Z0
G00 Z2.0000
G00 X11.0640 Y3.8610
G01 Z-2.2000
G01 Z0
G00 Z2.0000
G00 X6.0560 Y3.8610
G01 Z-2.2000
G01 Z0
G00 Z2.0000
G00 X4.7500 Y17.1050
G01 Z-2.2000
G01 Z0
G00 Z2.0000
G00 X4.7500 Y22.1130
G01 Z-2.2000
G01 Z0
G00 Z2.0000
G00 X4.1150 Y30.1860
G01 Z-2.2000
G01 Z0
G00 Z2.0000
G00 X4.1150 Y35.1940
G01 Z-2.2000
G01 Z0
G00 Z2.0000
M05
G00 Z0.50
G00 X0.0 Y0.0

