(G-CODE GENERATED BY FLATCAM v8.991 - www.flatcam.org - Version Date: 2019/12/27)

(Name: Gerber_BottomLayer.GBL_iso_cnc)
(Type: G-code from Geometry)
(Units: MM)

(Created on Thursday, 11 July 2024 at 15:59)

(TOOL DIAMETER: 0.2 mm)
(Feedrate: 120.0 mm/min)
(Feedrate_Z: 60.0 mm/min)
(Feedrate rapids 1500.0 mm/min)

(Z_Cut: -0.09 mm)
(Z_Move: 2.0 mm)
(Z Toolchange: 15.0 mm)
(X,Y Toolchange: 0.00, 0.00 mm)
(Z Start: None mm)
(Z End: 15.0 mm)
(Steps per circle: 64)
(Preprocessor Geometry: default)

(X range:   -0.9880 ...   28.3953  mm)
(Y range:   -0.9883 ...   39.9523  mm)

(Spindle Speed: None RPM)
G21
G90
G94




G01 F120.00
G00 Z2.0000

M03
G00 X4.6192 Y6.5476
G01 F60.00
G01 Z-0.0900
G01 F120.00
G01 X4.6285 Y4.9895
G01 X4.6239 Y4.9839
G01 X4.5655 Y4.9050
G01 X4.5208 Y4.8381
G01 X4.4703 Y4.7540
G01 X4.4324 Y4.6830
G01 X4.3904 Y4.5943
G01 X4.3596 Y4.5199
G01 X4.3266 Y4.4275
G01 X4.3032 Y4.3505
G01 X4.2793 Y4.2553
G01 X4.2637 Y4.1764
G01 X4.2493 Y4.0793
G01 X4.2414 Y3.9993
G01 X4.2365 Y3.9012
G01 X4.2365 Y3.8208
G01 X4.2414 Y3.7227
G01 X4.2493 Y3.6427
G01 X4.2637 Y3.5456
G01 X4.2793 Y3.4667
G01 X4.3032 Y3.3715
G01 X4.3266 Y3.2945
G01 X4.3596 Y3.2021
G01 X4.3904 Y3.1277
G01 X4.4324 Y3.0390
G01 X4.4703 Y2.9680
G01 X4.5208 Y2.8839
G01 X4.5655 Y2.8170
G01 X4.6239 Y2.7381
G01 X4.6750 Y2.6759
G01 X4.7409 Y2.6032
G01 X4.7978 Y2.5463
G01 X4.8705 Y2.4804
G01 X4.9327 Y2.4294
G01 X5.0115 Y2.3709
G01 X5.0784 Y2.3262
G01 X5.1626 Y2.2757
G01 X5.2336 Y2.2378
G01 X5.3223 Y2.1958
G01 X5.3966 Y2.1651
G01 X5.4890 Y2.1320
G01 X5.5660 Y2.1086
G01 X5.6612 Y2.0848
G01 X5.7402 Y2.0691
G01 X5.8372 Y2.0547
G01 X5.9173 Y2.0468
G01 X6.0153 Y2.0420
G01 X6.0958 Y2.0420
G01 X6.1938 Y2.0468
G01 X6.2739 Y2.0547
G01 X6.3710 Y2.0691
G01 X6.4499 Y2.0848
G01 X6.5451 Y2.1086
G01 X6.6221 Y2.1320
G01 X6.7145 Y2.1651
G01 X6.7888 Y2.1958
G01 X6.8776 Y2.2378
G01 X6.9485 Y2.2757
G01 X7.0327 Y2.3262
G01 X7.0996 Y2.3709
G01 X7.1784 Y2.4294
G01 X7.2406 Y2.4804
G01 X7.3133 Y2.5463
G01 X7.3702 Y2.6032
G01 X7.4362 Y2.6759
G01 X7.4872 Y2.7381
G01 X7.5457 Y2.8170
G01 X7.5904 Y2.8839
G01 X7.6408 Y2.9680
G01 X7.6788 Y3.0390
G01 X7.7207 Y3.1277
G01 X7.7515 Y3.2021
G01 X7.7846 Y3.2945
G01 X7.8079 Y3.3715
G01 X7.8318 Y3.4667
G01 X7.8475 Y3.5456
G01 X7.8619 Y3.6427
G01 X7.8698 Y3.7227
G01 X7.8746 Y3.8208
G01 X7.8746 Y3.9012
G01 X7.8698 Y3.9993
G01 X7.8619 Y4.0793
G01 X7.8475 Y4.1764
G01 X7.8318 Y4.2553
G01 X7.8079 Y4.3505
G01 X7.7846 Y4.4275
G01 X7.7515 Y4.5199
G01 X7.7207 Y4.5943
G01 X7.6788 Y4.6830
G01 X7.6408 Y4.7540
G01 X7.5904 Y4.8381
G01 X7.5457 Y4.9050
G01 X7.4872 Y4.9839
G01 X7.4691 Y5.0060
G01 X7.4445 Y9.1249
G01 X16.7465 Y16.1313
G01 X23.6669 Y16.1313
G01 X23.6931 Y16.1098
G01 X23.7720 Y16.0513
G01 X23.8389 Y16.0066
G01 X23.9230 Y15.9562
G01 X23.9940 Y15.9182
G01 X24.0827 Y15.8763
G01 X24.1571 Y15.8455
G01 X24.2495 Y15.8124
G01 X24.3265 Y15.7891
G01 X24.4217 Y15.7652
G01 X24.5006 Y15.7495
G01 X24.5977 Y15.7351
G01 X24.6777 Y15.7272
G01 X24.7758 Y15.7224
G01 X24.8562 Y15.7224
G01 X24.9543 Y15.7272
G01 X25.0343 Y15.7351
G01 X25.1314 Y15.7495
G01 X25.2103 Y15.7652
G01 X25.3055 Y15.7891
G01 X25.3825 Y15.8124
G01 X25.4749 Y15.8455
G01 X25.5538 Y15.8784
G01 X23.8117 Y14.1363
G01 X23.7839 Y14.1072
G01 X23.7444 Y14.0635
G01 X23.6933 Y14.0013
G01 X23.6582 Y13.9540
G01 X23.6508 Y13.9429
G01 X19.3465 Y13.9173
G01 X19.3063 Y13.9160
G01 X19.2475 Y13.9128
G01 X19.1634 Y13.9038
G01 X19.1466 Y13.9063
G01 X19.0880 Y13.9123
G01 X19.0077 Y13.9165
G01 X18.9488 Y13.9167
G01 X18.8684 Y13.9129
G01 X18.8097 Y13.9073
G01 X18.7301 Y13.8958
G01 X18.6723 Y13.8845
G01 X18.5942 Y13.8651
G01 X18.5377 Y13.8482
G01 X18.4619 Y13.8213
G01 X18.4074 Y13.7989
G01 X18.3346 Y13.7647
G01 X18.2825 Y13.7371
G01 X18.2134 Y13.6960
G01 X18.1643 Y13.6634
G01 X18.0995 Y13.6156
G01 X18.0539 Y13.5784
G01 X17.9941 Y13.5245
G01 X17.9523 Y13.4830
G01 X17.9245 Y13.4539
G01 X10.8216 Y5.6637
G01 X10.7490 Y5.6529
G01 X10.6701 Y5.6372
G01 X10.5749 Y5.6134
G01 X10.4979 Y5.5900
G01 X10.4055 Y5.5569
G01 X10.3312 Y5.5262
G01 X10.2424 Y5.4842
G01 X10.1715 Y5.4463
G01 X10.0873 Y5.3958
G01 X10.0204 Y5.3511
G01 X9.9416 Y5.2926
G01 X9.8794 Y5.2416
G01 X9.8066 Y5.1757
G01 X9.7497 Y5.1188
G01 X9.6838 Y5.0461
G01 X9.6328 Y4.9839
G01 X9.5743 Y4.9050
G01 X9.5296 Y4.8381
G01 X9.4792 Y4.7540
G01 X9.4412 Y4.6830
G01 X9.3993 Y4.5943
G01 X9.3685 Y4.5199
G01 X9.3354 Y4.4275
G01 X9.3121 Y4.3505
G01 X9.2882 Y4.2553
G01 X9.2725 Y4.1764
G01 X9.2581 Y4.0793
G01 X9.2502 Y3.9993
G01 X9.2454 Y3.9012
G01 X9.2454 Y3.8208
G01 X9.2502 Y3.7227
G01 X9.2581 Y3.6427
G01 X9.2725 Y3.5456
G01 X9.2882 Y3.4667
G01 X9.3121 Y3.3715
G01 X9.3354 Y3.2945
G01 X9.3685 Y3.2021
G01 X9.3993 Y3.1277
G01 X9.4412 Y3.0390
G01 X9.4792 Y2.9680
G01 X9.5296 Y2.8839
G01 X9.5743 Y2.8170
G01 X9.6328 Y2.7381
G01 X9.6838 Y2.6759
G01 X9.7497 Y2.6032
G01 X9.8066 Y2.5463
G01 X9.8794 Y2.4804
G01 X9.9416 Y2.4294
G01 X10.0204 Y2.3709
G01 X10.0873 Y2.3262
G01 X10.1715 Y2.2757
G01 X10.2424 Y2.2378
G01 X10.3312 Y2.1958
G01 X10.4055 Y2.1651
G01 X10.4979 Y2.1320
G01 X10.5749 Y2.1086
G01 X10.6701 Y2.0848
G01 X10.7490 Y2.0691
G01 X10.8461 Y2.0547
G01 X10.9262 Y2.0468
G01 X11.0242 Y2.0420
G01 X11.1047 Y2.0420
G01 X11.2027 Y2.0468
G01 X11.2828 Y2.0547
G01 X11.3798 Y2.0691
G01 X11.4588 Y2.0848
G01 X11.5540 Y2.1086
G01 X11.6310 Y2.1320
G01 X11.7234 Y2.1651
G01 X11.7977 Y2.1958
G01 X11.8864 Y2.2378
G01 X11.9574 Y2.2757
G01 X12.0416 Y2.3262
G01 X12.1085 Y2.3709
G01 X12.1873 Y2.4294
G01 X12.2495 Y2.4804
G01 X12.3222 Y2.5463
G01 X12.3791 Y2.6032
G01 X12.4450 Y2.6759
G01 X12.4961 Y2.7381
G01 X12.5545 Y2.8170
G01 X12.5992 Y2.8839
G01 X12.6497 Y2.9680
G01 X12.6876 Y3.0390
G01 X12.7296 Y3.1277
G01 X12.7604 Y3.2021
G01 X12.7934 Y3.2945
G01 X12.8168 Y3.3715
G01 X12.8406 Y3.4667
G01 X12.8563 Y3.5456
G01 X12.8707 Y3.6427
G01 X12.8765 Y3.7014
G01 X15.8872 Y7.0034
G01 X19.8590 Y6.9008
G01 X23.3436 Y3.4162
G01 X23.3472 Y3.3417
G01 X23.3551 Y3.2617
G01 X23.3695 Y3.1646
G01 X23.3852 Y3.0857
G01 X23.4091 Y2.9905
G01 X23.4324 Y2.9135
G01 X23.4655 Y2.8211
G01 X23.4963 Y2.7467
G01 X23.5382 Y2.6580
G01 X23.5762 Y2.5870
G01 X23.6266 Y2.5029
G01 X23.6713 Y2.4360
G01 X23.7298 Y2.3571
G01 X23.7808 Y2.2949
G01 X23.8467 Y2.2222
G01 X23.9036 Y2.1653
G01 X23.9764 Y2.0994
G01 X24.0386 Y2.0484
G01 X24.1174 Y1.9899
G01 X24.1843 Y1.9452
G01 X24.2685 Y1.8947
G01 X24.3394 Y1.8568
G01 X24.4282 Y1.8148
G01 X24.5025 Y1.7841
G01 X24.5949 Y1.7510
G01 X24.6719 Y1.7276
G01 X24.7671 Y1.7038
G01 X24.8460 Y1.6881
G01 X24.9431 Y1.6737
G01 X25.0232 Y1.6658
G01 X25.1212 Y1.6610
G01 X25.2017 Y1.6610
G01 X25.2997 Y1.6658
G01 X25.3798 Y1.6737
G01 X25.4768 Y1.6881
G01 X25.5558 Y1.7038
G01 X25.6510 Y1.7276
G01 X25.7280 Y1.7510
G01 X25.8204 Y1.7841
G01 X25.8947 Y1.8148
G01 X25.9834 Y1.8568
G01 X26.0544 Y1.8947
G01 X26.1386 Y1.9452
G01 X26.2055 Y1.9899
G01 X26.2843 Y2.0484
G01 X26.3465 Y2.0994
G01 X26.4192 Y2.1653
G01 X26.4761 Y2.2222
G01 X26.5420 Y2.2949
G01 X26.5931 Y2.3571
G01 X26.6515 Y2.4360
G01 X26.6962 Y2.5029
G01 X26.7467 Y2.5870
G01 X26.7846 Y2.6580
G01 X26.8266 Y2.7467
G01 X26.8574 Y2.8211
G01 X26.8904 Y2.9135
G01 X26.9138 Y2.9905
G01 X26.9376 Y3.0857
G01 X26.9533 Y3.1646
G01 X26.9677 Y3.2617
G01 X26.9756 Y3.3417
G01 X26.9804 Y3.4398
G01 X26.9804 Y3.5202
G01 X26.9756 Y3.6183
G01 X26.9677 Y3.6983
G01 X26.9533 Y3.7954
G01 X26.9376 Y3.8743
G01 X26.9138 Y3.9695
G01 X26.8904 Y4.0465
G01 X26.8574 Y4.1389
G01 X26.8266 Y4.2133
G01 X26.7846 Y4.3020
G01 X26.7467 Y4.3730
G01 X26.6962 Y4.4571
G01 X26.6515 Y4.5240
G01 X26.5931 Y4.6029
G01 X26.5420 Y4.6651
G01 X26.4761 Y4.7378
G01 X26.4192 Y4.7947
G01 X26.3465 Y4.8606
G01 X26.2843 Y4.9116
G01 X26.2055 Y4.9701
G01 X26.1386 Y5.0148
G01 X26.0544 Y5.0653
G01 X25.9834 Y5.1032
G01 X25.8947 Y5.1452
G01 X25.8204 Y5.1759
G01 X25.7280 Y5.2090
G01 X25.6510 Y5.2324
G01 X25.5558 Y5.2562
G01 X25.5122 Y5.2649
G01 X21.4667 Y9.3103
G01 X21.4386 Y9.3372
G01 X21.3964 Y9.3755
G01 X21.3364 Y9.4251
G01 X21.2908 Y9.4592
G01 X21.2264 Y9.5029
G01 X21.1777 Y9.5326
G01 X21.1095 Y9.5699
G01 X21.0582 Y9.5949
G01 X20.9867 Y9.6256
G01 X20.9334 Y9.6455
G01 X20.8593 Y9.6693
G01 X20.8043 Y9.6842
G01 X20.7282 Y9.7008
G01 X20.6721 Y9.7103
G01 X20.5948 Y9.7197
G01 X20.5380 Y9.7239
G01 X20.4991 Y9.7258
G01 X18.4184 Y9.7796
G01 X19.6024 Y11.0781
G01 X23.6912 Y11.1025
G01 X23.7720 Y11.0425
G01 X23.8389 Y10.9977
G01 X23.9230 Y10.9473
G01 X23.9940 Y10.9094
G01 X24.0827 Y10.8674
G01 X24.1571 Y10.8366
G01 X24.2495 Y10.8035
G01 X24.3265 Y10.7802
G01 X24.4217 Y10.7563
G01 X24.5006 Y10.7406
G01 X24.5977 Y10.7262
G01 X24.6777 Y10.7184
G01 X24.7758 Y10.7135
G01 X24.8562 Y10.7135
G01 X24.9543 Y10.7184
G01 X25.0343 Y10.7262
G01 X25.1314 Y10.7406
G01 X25.2103 Y10.7563
G01 X25.3055 Y10.7802
G01 X25.3825 Y10.8035
G01 X25.4749 Y10.8366
G01 X25.5493 Y10.8674
G01 X25.6380 Y10.9094
G01 X25.7090 Y10.9473
G01 X25.7931 Y10.9977
G01 X25.8600 Y11.0425
G01 X25.9389 Y11.1009
G01 X26.0011 Y11.1520
G01 X26.0738 Y11.2179
G01 X26.1307 Y11.2748
G01 X26.1966 Y11.3475
G01 X26.2476 Y11.4097
G01 X26.3061 Y11.4885
G01 X26.3446 Y11.5461
G01 X26.3618 Y11.5636
G01 X26.4011 Y11.6074
G01 X26.4518 Y11.6700
G01 X26.4866 Y11.7175
G01 X26.5309 Y11.7847
G01 X26.5609 Y11.8354
G01 X26.5984 Y11.9066
G01 X26.6233 Y11.9600
G01 X26.6537 Y12.0345
G01 X26.6732 Y12.0901
G01 X26.6961 Y12.1672
G01 X26.7101 Y12.2244
G01 X26.7253 Y12.3035
G01 X26.7336 Y12.3618
G01 X26.7410 Y12.4419
G01 X26.7435 Y12.5008
G01 X26.7430 Y12.5812
G01 X26.7398 Y12.6401
G01 X26.7314 Y12.7201
G01 X26.7225 Y12.7783
G01 X26.7063 Y12.8571
G01 X26.6916 Y12.9142
G01 X26.6716 Y12.9790
G01 X27.9793 Y14.2867
G01 X28.0071 Y14.3158
G01 X28.0466 Y14.3595
G01 X28.0977 Y14.4217
G01 X28.1328 Y14.4690
G01 X28.1775 Y14.5359
G01 X28.2078 Y14.5865
G01 X28.2457 Y14.6574
G01 X28.2709 Y14.7107
G01 X28.3017 Y14.7850
G01 X28.3215 Y14.8405
G01 X28.3449 Y14.9175
G01 X28.3592 Y14.9746
G01 X28.3749 Y15.0536
G01 X28.3835 Y15.1118
G01 X28.3914 Y15.1919
G01 X28.3943 Y15.2508
G01 X28.3953 Y15.2910
G01 X28.3953 Y22.6570
G01 X28.3943 Y22.6972
G01 X28.3914 Y22.7561
G01 X28.3835 Y22.8362
G01 X28.3749 Y22.8944
G01 X28.3592 Y22.9734
G01 X28.3449 Y23.0305
G01 X28.3215 Y23.1075
G01 X28.3017 Y23.1630
G01 X28.2709 Y23.2373
G01 X28.2457 Y23.2906
G01 X28.2078 Y23.3615
G01 X28.1775 Y23.4121
G01 X28.1328 Y23.4790
G01 X28.0977 Y23.5263
G01 X28.0466 Y23.5885
G01 X28.0071 Y23.6322
G01 X27.9793 Y23.6613
G01 X26.1161 Y25.5245
G01 X26.1143 Y25.5423
G01 X26.0999 Y25.6394
G01 X26.0842 Y25.7183
G01 X26.0604 Y25.8135
G01 X26.0370 Y25.8905
G01 X26.0039 Y25.9829
G01 X25.9732 Y26.0573
G01 X25.9312 Y26.1460
G01 X25.8933 Y26.2170
G01 X25.8428 Y26.3011
G01 X25.7981 Y26.3680
G01 X25.7396 Y26.4469
G01 X25.6886 Y26.5091
G01 X25.6227 Y26.5818
G01 X25.5658 Y26.6387
G01 X25.4931 Y26.7046
G01 X25.4309 Y26.7556
G01 X25.3520 Y26.8141
G01 X25.2851 Y26.8588
G01 X25.2010 Y26.9093
G01 X25.1300 Y26.9472
G01 X25.0413 Y26.9892
G01 X24.9669 Y27.0199
G01 X24.8745 Y27.0530
G01 X24.7975 Y27.0764
G01 X24.7023 Y27.1002
G01 X24.6234 Y27.1159
G01 X24.5263 Y27.1303
G01 X24.4463 Y27.1382
G01 X24.3482 Y27.1430
G01 X24.2678 Y27.1430
G01 X24.1697 Y27.1382
G01 X24.0897 Y27.1303
G01 X23.9926 Y27.1159
G01 X23.9137 Y27.1002
G01 X23.8185 Y27.0764
G01 X23.7415 Y27.0530
G01 X23.6491 Y27.0199
G01 X23.5747 Y26.9892
G01 X23.4860 Y26.9472
G01 X23.4150 Y26.9093
G01 X23.3309 Y26.8588
G01 X23.2640 Y26.8141
G01 X23.1851 Y26.7556
G01 X23.1229 Y26.7046
G01 X23.0502 Y26.6387
G01 X22.9933 Y26.5818
G01 X22.9274 Y26.5091
G01 X22.8764 Y26.4469
G01 X22.8179 Y26.3680
G01 X22.7732 Y26.3011
G01 X22.7227 Y26.2170
G01 X22.6848 Y26.1460
G01 X22.6428 Y26.0573
G01 X22.6121 Y25.9829
G01 X22.5790 Y25.8905
G01 X22.5556 Y25.8135
G01 X22.5318 Y25.7183
G01 X22.5161 Y25.6394
G01 X22.5017 Y25.5423
G01 X22.4938 Y25.4623
G01 X22.4890 Y25.3642
G01 X22.4890 Y25.2838
G01 X22.4938 Y25.1857
G01 X22.5017 Y25.1057
G01 X22.5161 Y25.0086
G01 X22.5318 Y24.9297
G01 X22.5556 Y24.8345
G01 X22.5790 Y24.7575
G01 X22.6121 Y24.6651
G01 X22.6428 Y24.5907
G01 X22.6848 Y24.5020
G01 X22.7227 Y24.4310
G01 X22.7732 Y24.3469
G01 X22.8179 Y24.2800
G01 X22.8764 Y24.2011
G01 X22.9274 Y24.1389
G01 X22.9933 Y24.0662
G01 X23.0502 Y24.0093
G01 X23.1229 Y23.9434
G01 X23.1851 Y23.8924
G01 X23.2640 Y23.8339
G01 X23.3309 Y23.7892
G01 X23.4150 Y23.7387
G01 X23.4860 Y23.7008
G01 X23.5747 Y23.6588
G01 X23.6491 Y23.6281
G01 X23.7415 Y23.5950
G01 X23.8185 Y23.5716
G01 X23.9137 Y23.5478
G01 X23.9926 Y23.5321
G01 X24.0897 Y23.5177
G01 X24.1075 Y23.5159
G01 X25.5547 Y22.0687
G01 X25.5547 Y19.2040
G01 X25.5493 Y19.2066
G01 X25.4749 Y19.2374
G01 X25.3825 Y19.2704
G01 X25.3055 Y19.2938
G01 X25.2103 Y19.3177
G01 X25.1314 Y19.3333
G01 X25.0343 Y19.3477
G01 X24.9543 Y19.3556
G01 X24.8562 Y19.3605
G01 X24.7758 Y19.3605
G01 X24.6777 Y19.3556
G01 X24.5977 Y19.3477
G01 X24.5006 Y19.3333
G01 X24.4217 Y19.3177
G01 X24.3265 Y19.2938
G01 X24.2495 Y19.2704
G01 X24.1571 Y19.2374
G01 X24.0827 Y19.2066
G01 X23.9940 Y19.1646
G01 X23.9230 Y19.1267
G01 X23.8389 Y19.0762
G01 X23.7720 Y19.0315
G01 X23.6917 Y18.9719
G01 X16.2714 Y18.9719
G01 X16.2336 Y18.9710
G01 X16.1783 Y18.9685
G01 X16.1031 Y18.9615
G01 X16.0482 Y18.9539
G01 X15.9739 Y18.9400
G01 X15.9200 Y18.9274
G01 X15.8473 Y18.9067
G01 X15.7948 Y18.8892
G01 X15.7243 Y18.8619
G01 X15.6737 Y18.8396
G01 X15.6060 Y18.8060
G01 X15.5576 Y18.7791
G01 X15.4933 Y18.7394
G01 X15.4476 Y18.7081
G01 X15.4169 Y18.6861
G01 X5.4500 Y11.1788
G01 X5.4425 Y11.1765
G01 X5.3870 Y11.1567
G01 X5.3127 Y11.1259
G01 X5.2594 Y11.1007
G01 X5.1885 Y11.0628
G01 X5.1379 Y11.0325
G01 X5.0710 Y10.9878
G01 X5.0237 Y10.9527
G01 X4.9615 Y10.9016
G01 X4.9178 Y10.8621
G01 X4.8887 Y10.8343
G01 X0.3167 Y6.2623
G01 X0.2889 Y6.2332
G01 X0.2494 Y6.1895
G01 X0.1983 Y6.1273
G01 X0.1632 Y6.0800
G01 X0.1185 Y6.0131
G01 X0.0882 Y5.9625
G01 X0.0503 Y5.8916
G01 X0.0251 Y5.8383
G01 X-0.0057 Y5.7640
G01 X-0.0255 Y5.7085
G01 X-0.0489 Y5.6315
G01 X-0.0632 Y5.5744
G01 X-0.0789 Y5.4954
G01 X-0.0875 Y5.4372
G01 X-0.0954 Y5.3571
G01 X-0.0983 Y5.2982
G01 X-0.0993 Y5.2580
G01 X-0.0993 Y2.4640
G01 X-0.0983 Y2.4238
G01 X-0.0954 Y2.3649
G01 X-0.0875 Y2.2848
G01 X-0.0789 Y2.2266
G01 X-0.0632 Y2.1476
G01 X-0.0489 Y2.0905
G01 X-0.0255 Y2.0135
G01 X-0.0057 Y1.9580
G01 X0.0251 Y1.8837
G01 X0.0503 Y1.8304
G01 X0.0882 Y1.7595
G01 X0.1185 Y1.7089
G01 X0.1632 Y1.6420
G01 X0.1983 Y1.5947
G01 X0.2494 Y1.5325
G01 X0.2889 Y1.4888
G01 X0.3167 Y1.4597
G01 X2.3487 Y-0.5723
G01 X2.3778 Y-0.6001
G01 X2.4215 Y-0.6396
G01 X2.4837 Y-0.6907
G01 X2.5310 Y-0.7258
G01 X2.5979 Y-0.7705
G01 X2.6485 Y-0.8008
G01 X2.7194 Y-0.8387
G01 X2.7727 Y-0.8639
G01 X2.8470 Y-0.8947
G01 X2.9025 Y-0.9145
G01 X2.9795 Y-0.9379
G01 X3.0366 Y-0.9522
G01 X3.1156 Y-0.9679
G01 X3.1738 Y-0.9765
G01 X3.2539 Y-0.9844
G01 X3.3128 Y-0.9873
G01 X3.3530 Y-0.9883
G01 X17.1046 Y-0.9883
G01 X17.1448 Y-0.9873
G01 X17.2036 Y-0.9844
G01 X17.2837 Y-0.9765
G01 X17.3420 Y-0.9679
G01 X17.4209 Y-0.9522
G01 X17.4781 Y-0.9379
G01 X17.5551 Y-0.9145
G01 X17.6105 Y-0.8947
G01 X17.6849 Y-0.8639
G01 X17.7381 Y-0.8387
G01 X17.8091 Y-0.8008
G01 X17.8596 Y-0.7705
G01 X17.9265 Y-0.7258
G01 X17.9739 Y-0.6907
G01 X18.0361 Y-0.6396
G01 X18.0797 Y-0.6001
G01 X18.1089 Y-0.5723
G01 X20.3531 Y1.6719
G01 X20.3709 Y1.6737
G01 X20.4680 Y1.6881
G01 X20.5469 Y1.7038
G01 X20.6421 Y1.7276
G01 X20.7191 Y1.7510
G01 X20.8115 Y1.7841
G01 X20.8858 Y1.8148
G01 X20.9746 Y1.8568
G01 X21.0455 Y1.8947
G01 X21.1297 Y1.9452
G01 X21.1966 Y1.9899
G01 X21.2754 Y2.0484
G01 X21.3376 Y2.0994
G01 X21.4103 Y2.1653
G01 X21.4672 Y2.2222
G01 X21.5332 Y2.2949
G01 X21.5842 Y2.3571
G01 X21.6427 Y2.4360
G01 X21.6874 Y2.5029
G01 X21.7378 Y2.5870
G01 X21.7758 Y2.6580
G01 X21.8177 Y2.7467
G01 X21.8485 Y2.8211
G01 X21.8816 Y2.9135
G01 X21.9049 Y2.9905
G01 X21.9288 Y3.0857
G01 X21.9445 Y3.1646
G01 X21.9589 Y3.2617
G01 X21.9668 Y3.3417
G01 X21.9716 Y3.4398
G01 X21.9716 Y3.5202
G01 X21.9668 Y3.6183
G01 X21.9589 Y3.6983
G01 X21.9445 Y3.7954
G01 X21.9288 Y3.8743
G01 X21.9049 Y3.9695
G01 X21.8816 Y4.0465
G01 X21.8485 Y4.1389
G01 X21.8177 Y4.2133
G01 X21.7758 Y4.3020
G01 X21.7378 Y4.3730
G01 X21.6874 Y4.4571
G01 X21.6427 Y4.5240
G01 X21.5842 Y4.6029
G01 X21.5332 Y4.6651
G01 X21.4672 Y4.7378
G01 X21.4103 Y4.7947
G01 X21.3376 Y4.8606
G01 X21.2754 Y4.9116
G01 X21.1966 Y4.9701
G01 X21.1297 Y5.0148
G01 X21.0455 Y5.0653
G01 X20.9746 Y5.1032
G01 X20.8858 Y5.1452
G01 X20.8115 Y5.1759
G01 X20.7191 Y5.2090
G01 X20.6421 Y5.2324
G01 X20.5469 Y5.2562
G01 X20.4680 Y5.2719
G01 X20.3709 Y5.2863
G01 X20.2908 Y5.2942
G01 X20.1928 Y5.2990
G01 X20.1123 Y5.2990
G01 X20.0143 Y5.2942
G01 X19.9342 Y5.2863
G01 X19.8372 Y5.2719
G01 X19.7582 Y5.2562
G01 X19.6630 Y5.2324
G01 X19.5860 Y5.2090
G01 X19.4936 Y5.1759
G01 X19.4193 Y5.1452
G01 X19.3306 Y5.1032
G01 X19.2596 Y5.0653
G01 X19.1754 Y5.0148
G01 X19.1085 Y4.9701
G01 X19.0297 Y4.9116
G01 X18.9675 Y4.8606
G01 X18.8948 Y4.7947
G01 X18.8379 Y4.7378
G01 X18.7720 Y4.6651
G01 X18.7209 Y4.6029
G01 X18.6625 Y4.5240
G01 X18.6178 Y4.4571
G01 X18.5673 Y4.3730
G01 X18.5294 Y4.3020
G01 X18.4874 Y4.2133
G01 X18.4566 Y4.1389
G01 X18.4236 Y4.0465
G01 X18.4002 Y3.9695
G01 X18.3763 Y3.8743
G01 X18.3607 Y3.7954
G01 X18.3463 Y3.6983
G01 X18.3445 Y3.6805
G01 X16.5163 Y1.8523
G01 X3.9413 Y1.8523
G01 X2.7413 Y3.0523
G01 X2.7413 Y4.6697
G01 X4.6192 Y6.5476
G00 Z2.0000
G00 X4.7967 Y6.9796
G01 F60.00
G01 Z-0.0900
G01 F120.00
G01 X4.8089 Y4.9258
G01 X4.7685 Y4.8766
G01 X4.7100 Y4.7978
G01 X4.6751 Y4.7456
G01 X4.6247 Y4.6614
G01 X4.5951 Y4.6060
G01 X4.5531 Y4.5173
G01 X4.5291 Y4.4593
G01 X4.4960 Y4.3669
G01 X4.4778 Y4.3068
G01 X4.4540 Y4.2116
G01 X4.4417 Y4.1500
G01 X4.4273 Y4.0529
G01 X4.4211 Y3.9904
G01 X4.4163 Y3.8924
G01 X4.4163 Y3.8296
G01 X4.4211 Y3.7316
G01 X4.4273 Y3.6691
G01 X4.4417 Y3.5720
G01 X4.4540 Y3.5104
G01 X4.4778 Y3.4152
G01 X4.4960 Y3.3551
G01 X4.5291 Y3.2627
G01 X4.5531 Y3.2047
G01 X4.5951 Y3.1160
G01 X4.6247 Y3.0606
G01 X4.6751 Y2.9764
G01 X4.7100 Y2.9242
G01 X4.7685 Y2.8454
G01 X4.8083 Y2.7968
G01 X4.8742 Y2.7241
G01 X4.9187 Y2.6797
G01 X4.9914 Y2.6138
G01 X5.0399 Y2.5739
G01 X5.1187 Y2.5155
G01 X5.1710 Y2.4806
G01 X5.2551 Y2.4301
G01 X5.3105 Y2.4005
G01 X5.3992 Y2.3586
G01 X5.4573 Y2.3345
G01 X5.5497 Y2.3015
G01 X5.6098 Y2.2832
G01 X5.7050 Y2.2594
G01 X5.7666 Y2.2471
G01 X5.8636 Y2.2327
G01 X5.9261 Y2.2266
G01 X6.0242 Y2.2218
G01 X6.0870 Y2.2218
G01 X6.1850 Y2.2266
G01 X6.2475 Y2.2327
G01 X6.3446 Y2.2471
G01 X6.4062 Y2.2594
G01 X6.5014 Y2.2832
G01 X6.5615 Y2.3015
G01 X6.6539 Y2.3345
G01 X6.7119 Y2.3586
G01 X6.8006 Y2.4005
G01 X6.8560 Y2.4301
G01 X6.9402 Y2.4806
G01 X6.9924 Y2.5155
G01 X7.0712 Y2.5739
G01 X7.1198 Y2.6138
G01 X7.1925 Y2.6797
G01 X7.2369 Y2.7241
G01 X7.3028 Y2.7968
G01 X7.3426 Y2.8454
G01 X7.4011 Y2.9242
G01 X7.4360 Y2.9764
G01 X7.4864 Y3.0606
G01 X7.5160 Y3.1160
G01 X7.5580 Y3.2047
G01 X7.5820 Y3.2627
G01 X7.6151 Y3.3551
G01 X7.6333 Y3.4152
G01 X7.6572 Y3.5104
G01 X7.6694 Y3.5720
G01 X7.6838 Y3.6691
G01 X7.6900 Y3.7316
G01 X7.6948 Y3.8296
G01 X7.6948 Y3.8924
G01 X7.6900 Y3.9904
G01 X7.6838 Y4.0529
G01 X7.6694 Y4.1500
G01 X7.6572 Y4.2116
G01 X7.6333 Y4.3068
G01 X7.6151 Y4.3669
G01 X7.5820 Y4.4593
G01 X7.5580 Y4.5173
G01 X7.5160 Y4.6060
G01 X7.4864 Y4.6614
G01 X7.4360 Y4.7456
G01 X7.4011 Y4.7978
G01 X7.3426 Y4.8766
G01 X7.3028 Y4.9252
G01 X7.2895 Y4.9399
G01 X7.2640 Y9.2142
G01 X16.6863 Y16.3113
G01 X23.7330 Y16.3113
G01 X23.7518 Y16.2942
G01 X23.8004 Y16.2544
G01 X23.8792 Y16.1959
G01 X23.9314 Y16.1610
G01 X24.0156 Y16.1106
G01 X24.0710 Y16.0810
G01 X24.1597 Y16.0390
G01 X24.2177 Y16.0150
G01 X24.3101 Y15.9819
G01 X24.3702 Y15.9637
G01 X24.4654 Y15.9398
G01 X24.5270 Y15.9276
G01 X24.6241 Y15.9132
G01 X24.6866 Y15.9070
G01 X24.7846 Y15.9022
G01 X24.8474 Y15.9022
G01 X24.9454 Y15.9070
G01 X25.0079 Y15.9132
G01 X25.1050 Y15.9276
G01 X25.1666 Y15.9398
G01 X25.2618 Y15.9637
G01 X25.3219 Y15.9819
G01 X25.4143 Y16.0150
G01 X25.4723 Y16.0390
G01 X25.5610 Y16.0810
G01 X25.6164 Y16.1106
G01 X25.7006 Y16.1610
G01 X25.7347 Y16.1838
G01 X25.7347 Y15.8047
G01 X23.9390 Y14.0090
G01 X23.9173 Y13.9863
G01 X23.8778 Y13.9426
G01 X23.8379 Y13.8941
G01 X23.8028 Y13.8468
G01 X23.7661 Y13.7915
G01 X23.7518 Y13.7798
G01 X23.7337 Y13.7634
G01 X19.3476 Y13.7373
G01 X19.3162 Y13.7363
G01 X19.2574 Y13.7331
G01 X19.1949 Y13.7266
G01 X19.1644 Y13.7218
G01 X19.1285 Y13.7273
G01 X19.0699 Y13.7332
G01 X19.0071 Y13.7365
G01 X18.9482 Y13.7367
G01 X18.8855 Y13.7338
G01 X18.8268 Y13.7282
G01 X18.7647 Y13.7191
G01 X18.7069 Y13.7078
G01 X18.6459 Y13.6927
G01 X18.5895 Y13.6758
G01 X18.5303 Y13.6548
G01 X18.4758 Y13.6324
G01 X18.4189 Y13.6057
G01 X18.3669 Y13.5781
G01 X18.3129 Y13.5460
G01 X18.2638 Y13.5134
G01 X18.2133 Y13.4762
G01 X18.1676 Y13.4389
G01 X18.1210 Y13.3969
G01 X18.0792 Y13.3553
G01 X18.0575 Y13.3327
G01 X10.9095 Y5.4929
G01 X10.8725 Y5.4893
G01 X10.7754 Y5.4749
G01 X10.7138 Y5.4626
G01 X10.6186 Y5.4388
G01 X10.5585 Y5.4205
G01 X10.4661 Y5.3875
G01 X10.4081 Y5.3634
G01 X10.3194 Y5.3215
G01 X10.2640 Y5.2919
G01 X10.1798 Y5.2414
G01 X10.1276 Y5.2065
G01 X10.0488 Y5.1481
G01 X10.0002 Y5.1082
G01 X9.9275 Y5.0423
G01 X9.8831 Y4.9979
G01 X9.8172 Y4.9252
G01 X9.7774 Y4.8766
G01 X9.7189 Y4.7978
G01 X9.6840 Y4.7456
G01 X9.6336 Y4.6614
G01 X9.6040 Y4.6060
G01 X9.5620 Y4.5173
G01 X9.5380 Y4.4593
G01 X9.5049 Y4.3669
G01 X9.4867 Y4.3068
G01 X9.4628 Y4.2116
G01 X9.4506 Y4.1500
G01 X9.4362 Y4.0529
G01 X9.4300 Y3.9904
G01 X9.4252 Y3.8924
G01 X9.4252 Y3.8296
G01 X9.4300 Y3.7316
G01 X9.4362 Y3.6691
G01 X9.4506 Y3.5720
G01 X9.4628 Y3.5104
G01 X9.4867 Y3.4152
G01 X9.5049 Y3.3551
G01 X9.5380 Y3.2627
G01 X9.5620 Y3.2047
G01 X9.6040 Y3.1160
G01 X9.6336 Y3.0606
G01 X9.6840 Y2.9764
G01 X9.7189 Y2.9242
G01 X9.7774 Y2.8454
G01 X9.8172 Y2.7968
G01 X9.8831 Y2.7241
G01 X9.9275 Y2.6797
G01 X10.0002 Y2.6138
G01 X10.0488 Y2.5739
G01 X10.1276 Y2.5155
G01 X10.1798 Y2.4806
G01 X10.2640 Y2.4301
G01 X10.3194 Y2.4005
G01 X10.4081 Y2.3586
G01 X10.4661 Y2.3345
G01 X10.5585 Y2.3015
G01 X10.6186 Y2.2832
G01 X10.7138 Y2.2594
G01 X10.7754 Y2.2471
G01 X10.8725 Y2.2327
G01 X10.9350 Y2.2266
G01 X11.0330 Y2.2218
G01 X11.0958 Y2.2218
G01 X11.1939 Y2.2266
G01 X11.2564 Y2.2327
G01 X11.3534 Y2.2471
G01 X11.4150 Y2.2594
G01 X11.5102 Y2.2832
G01 X11.5703 Y2.3015
G01 X11.6627 Y2.3345
G01 X11.7207 Y2.3586
G01 X11.8095 Y2.4005
G01 X11.8649 Y2.4301
G01 X11.9490 Y2.4806
G01 X12.0012 Y2.5155
G01 X12.0801 Y2.5739
G01 X12.1286 Y2.6138
G01 X12.2013 Y2.6797
G01 X12.2457 Y2.7241
G01 X12.3116 Y2.7968
G01 X12.3515 Y2.8454
G01 X12.4100 Y2.9242
G01 X12.4448 Y2.9764
G01 X12.4953 Y3.0606
G01 X12.5249 Y3.1160
G01 X12.5669 Y3.2047
G01 X12.5909 Y3.2627
G01 X12.6240 Y3.3551
G01 X12.6422 Y3.4152
G01 X12.6660 Y3.5104
G01 X12.6783 Y3.5720
G01 X12.6927 Y3.6691
G01 X12.6988 Y3.7316
G01 X12.7010 Y3.7761
G01 X15.8096 Y7.1855
G01 X19.9355 Y7.0789
G01 X23.5222 Y3.4922
G01 X23.5222 Y3.4486
G01 X23.5270 Y3.3506
G01 X23.5332 Y3.2881
G01 X23.5476 Y3.1910
G01 X23.5598 Y3.1294
G01 X23.5837 Y3.0342
G01 X23.6019 Y2.9741
G01 X23.6350 Y2.8817
G01 X23.6590 Y2.8237
G01 X23.7010 Y2.7350
G01 X23.7306 Y2.6796
G01 X23.7810 Y2.5954
G01 X23.8159 Y2.5432
G01 X23.8744 Y2.4644
G01 X23.9142 Y2.4158
G01 X23.9801 Y2.3431
G01 X24.0245 Y2.2987
G01 X24.0972 Y2.2328
G01 X24.1458 Y2.1929
G01 X24.2246 Y2.1345
G01 X24.2768 Y2.0996
G01 X24.3610 Y2.0491
G01 X24.4164 Y2.0195
G01 X24.5051 Y1.9776
G01 X24.5631 Y1.9535
G01 X24.6555 Y1.9205
G01 X24.7156 Y1.9022
G01 X24.8108 Y1.8784
G01 X24.8724 Y1.8661
G01 X24.9695 Y1.8517
G01 X25.0320 Y1.8456
G01 X25.1300 Y1.8408
G01 X25.1928 Y1.8408
G01 X25.2909 Y1.8456
G01 X25.3534 Y1.8517
G01 X25.4504 Y1.8661
G01 X25.5120 Y1.8784
G01 X25.6072 Y1.9022
G01 X25.6673 Y1.9205
G01 X25.7597 Y1.9535
G01 X25.8177 Y1.9776
G01 X25.9065 Y2.0195
G01 X25.9619 Y2.0491
G01 X26.0460 Y2.0996
G01 X26.0982 Y2.1345
G01 X26.1771 Y2.1929
G01 X26.2256 Y2.2328
G01 X26.2983 Y2.2987
G01 X26.3427 Y2.3431
G01 X26.4086 Y2.4158
G01 X26.4485 Y2.4644
G01 X26.5070 Y2.5432
G01 X26.5418 Y2.5954
G01 X26.5923 Y2.6796
G01 X26.6219 Y2.7350
G01 X26.6639 Y2.8237
G01 X26.6879 Y2.8817
G01 X26.7210 Y2.9741
G01 X26.7392 Y3.0342
G01 X26.7630 Y3.1294
G01 X26.7753 Y3.1910
G01 X26.7897 Y3.2881
G01 X26.7958 Y3.3506
G01 X26.8007 Y3.4486
G01 X26.8007 Y3.5114
G01 X26.7958 Y3.6094
G01 X26.7897 Y3.6719
G01 X26.7753 Y3.7690
G01 X26.7630 Y3.8306
G01 X26.7392 Y3.9258
G01 X26.7210 Y3.9859
G01 X26.6879 Y4.0783
G01 X26.6639 Y4.1363
G01 X26.6219 Y4.2250
G01 X26.5923 Y4.2804
G01 X26.5418 Y4.3646
G01 X26.5070 Y4.4168
G01 X26.4485 Y4.4956
G01 X26.4086 Y4.5442
G01 X26.3427 Y4.6169
G01 X26.2983 Y4.6613
G01 X26.2256 Y4.7272
G01 X26.1771 Y4.7671
G01 X26.0982 Y4.8255
G01 X26.0460 Y4.8604
G01 X25.9619 Y4.9109
G01 X25.9065 Y4.9405
G01 X25.8177 Y4.9824
G01 X25.7597 Y5.0065
G01 X25.6673 Y5.0395
G01 X25.6072 Y5.0578
G01 X25.5120 Y5.0816
G01 X25.4504 Y5.0939
G01 X25.4248 Y5.0977
G01 X21.3395 Y9.1830
G01 X21.3175 Y9.2040
G01 X21.2753 Y9.2423
G01 X21.2285 Y9.2810
G01 X21.1829 Y9.3152
G01 X21.1326 Y9.3492
G01 X21.0840 Y9.3789
G01 X21.0307 Y9.4081
G01 X20.9794 Y9.4330
G01 X20.9236 Y9.4570
G01 X20.8703 Y9.4770
G01 X20.8124 Y9.4955
G01 X20.7574 Y9.5103
G01 X20.6981 Y9.5234
G01 X20.6419 Y9.5329
G01 X20.5816 Y9.5402
G01 X20.5248 Y9.5444
G01 X20.4945 Y9.5459
G01 X18.0200 Y9.6098
G01 X19.5225 Y11.2577
G01 X23.7548 Y11.2829
G01 X23.8004 Y11.2455
G01 X23.8792 Y11.1870
G01 X23.9314 Y11.1521
G01 X24.0156 Y11.1017
G01 X24.0710 Y11.0721
G01 X24.1597 Y11.0301
G01 X24.2177 Y11.0061
G01 X24.3101 Y10.9730
G01 X24.3702 Y10.9548
G01 X24.4654 Y10.9309
G01 X24.5270 Y10.9187
G01 X24.6241 Y10.9043
G01 X24.6866 Y10.8981
G01 X24.7846 Y10.8933
G01 X24.8474 Y10.8933
G01 X24.9454 Y10.8981
G01 X25.0079 Y10.9043
G01 X25.1050 Y10.9187
G01 X25.1666 Y10.9309
G01 X25.2618 Y10.9548
G01 X25.3219 Y10.9730
G01 X25.4143 Y11.0061
G01 X25.4723 Y11.0301
G01 X25.5610 Y11.0721
G01 X25.6164 Y11.1017
G01 X25.7006 Y11.1521
G01 X25.7528 Y11.1870
G01 X25.8316 Y11.2455
G01 X25.8802 Y11.2853
G01 X25.9529 Y11.3512
G01 X25.9973 Y11.3956
G01 X26.0632 Y11.4684
G01 X26.1031 Y11.5169
G01 X26.1615 Y11.5957
G01 X26.1964 Y11.6480
G01 X26.2025 Y11.6581
G01 X26.2278 Y11.6836
G01 X26.2671 Y11.7275
G01 X26.3066 Y11.7763
G01 X26.3414 Y11.8238
G01 X26.3760 Y11.8763
G01 X26.4060 Y11.9270
G01 X26.4353 Y11.9825
G01 X26.4601 Y12.0359
G01 X26.4838 Y12.0941
G01 X26.5033 Y12.1497
G01 X26.5212 Y12.2099
G01 X26.5352 Y12.2671
G01 X26.5471 Y12.3288
G01 X26.5554 Y12.3871
G01 X26.5612 Y12.4497
G01 X26.5637 Y12.5085
G01 X26.5633 Y12.5713
G01 X26.5601 Y12.6302
G01 X26.5536 Y12.6926
G01 X26.5446 Y12.7508
G01 X26.5319 Y12.8124
G01 X26.5173 Y12.8694
G01 X26.4987 Y12.9294
G01 X26.4785 Y12.9848
G01 X26.4620 Y13.0240
G01 X27.8520 Y14.4140
G01 X27.8737 Y14.4367
G01 X27.9132 Y14.4804
G01 X27.9531 Y14.5289
G01 X27.9882 Y14.5762
G01 X28.0231 Y14.6285
G01 X28.0534 Y14.6790
G01 X28.0830 Y14.7344
G01 X28.1082 Y14.7876
G01 X28.1322 Y14.8457
G01 X28.1520 Y14.9011
G01 X28.1703 Y14.9612
G01 X28.1846 Y15.0184
G01 X28.1968 Y15.0800
G01 X28.2055 Y15.1383
G01 X28.2116 Y15.2008
G01 X28.2145 Y15.2596
G01 X28.2153 Y15.2910
G01 X28.2153 Y22.6570
G01 X28.2145 Y22.6884
G01 X28.2116 Y22.7472
G01 X28.2055 Y22.8097
G01 X28.1968 Y22.8680
G01 X28.1846 Y22.9296
G01 X28.1703 Y22.9868
G01 X28.1520 Y23.0469
G01 X28.1322 Y23.1023
G01 X28.1082 Y23.1604
G01 X28.0830 Y23.2136
G01 X28.0534 Y23.2690
G01 X28.0231 Y23.3195
G01 X27.9882 Y23.3718
G01 X27.9531 Y23.4191
G01 X27.9132 Y23.4676
G01 X27.8737 Y23.5113
G01 X27.8520 Y23.5340
G01 X25.9429 Y25.4431
G01 X25.9424 Y25.4534
G01 X25.9363 Y25.5159
G01 X25.9219 Y25.6130
G01 X25.9096 Y25.6746
G01 X25.8858 Y25.7698
G01 X25.8675 Y25.8299
G01 X25.8345 Y25.9223
G01 X25.8104 Y25.9803
G01 X25.7685 Y26.0690
G01 X25.7389 Y26.1244
G01 X25.6884 Y26.2086
G01 X25.6535 Y26.2608
G01 X25.5951 Y26.3396
G01 X25.5552 Y26.3882
G01 X25.4893 Y26.4609
G01 X25.4449 Y26.5053
G01 X25.3722 Y26.5712
G01 X25.3236 Y26.6111
G01 X25.2448 Y26.6695
G01 X25.1926 Y26.7044
G01 X25.1084 Y26.7549
G01 X25.0530 Y26.7845
G01 X24.9643 Y26.8264
G01 X24.9063 Y26.8505
G01 X24.8139 Y26.8835
G01 X24.7538 Y26.9018
G01 X24.6586 Y26.9256
G01 X24.5970 Y26.9379
G01 X24.4999 Y26.9523
G01 X24.4374 Y26.9584
G01 X24.3394 Y26.9632
G01 X24.2766 Y26.9632
G01 X24.1786 Y26.9584
G01 X24.1161 Y26.9523
G01 X24.0190 Y26.9379
G01 X23.9574 Y26.9256
G01 X23.8622 Y26.9018
G01 X23.8021 Y26.8835
G01 X23.7097 Y26.8505
G01 X23.6517 Y26.8264
G01 X23.5630 Y26.7845
G01 X23.5076 Y26.7549
G01 X23.4234 Y26.7044
G01 X23.3712 Y26.6695
G01 X23.2924 Y26.6111
G01 X23.2438 Y26.5712
G01 X23.1711 Y26.5053
G01 X23.1267 Y26.4609
G01 X23.0608 Y26.3882
G01 X23.0209 Y26.3396
G01 X22.9625 Y26.2608
G01 X22.9276 Y26.2086
G01 X22.8771 Y26.1244
G01 X22.8475 Y26.0690
G01 X22.8056 Y25.9803
G01 X22.7815 Y25.9223
G01 X22.7485 Y25.8299
G01 X22.7302 Y25.7698
G01 X22.7064 Y25.6746
G01 X22.6941 Y25.6130
G01 X22.6797 Y25.5159
G01 X22.6736 Y25.4534
G01 X22.6688 Y25.3554
G01 X22.6688 Y25.2926
G01 X22.6736 Y25.1946
G01 X22.6797 Y25.1321
G01 X22.6941 Y25.0350
G01 X22.7064 Y24.9734
G01 X22.7302 Y24.8782
G01 X22.7485 Y24.8181
G01 X22.7815 Y24.7257
G01 X22.8056 Y24.6677
G01 X22.8475 Y24.5790
G01 X22.8771 Y24.5236
G01 X22.9276 Y24.4394
G01 X22.9625 Y24.3872
G01 X23.0209 Y24.3084
G01 X23.0608 Y24.2598
G01 X23.1267 Y24.1871
G01 X23.1711 Y24.1427
G01 X23.2438 Y24.0768
G01 X23.2924 Y24.0369
G01 X23.3712 Y23.9785
G01 X23.4234 Y23.9436
G01 X23.5076 Y23.8931
G01 X23.5630 Y23.8635
G01 X23.6517 Y23.8216
G01 X23.7097 Y23.7975
G01 X23.8021 Y23.7645
G01 X23.8622 Y23.7462
G01 X23.9574 Y23.7224
G01 X24.0190 Y23.7101
G01 X24.1161 Y23.6957
G01 X24.1786 Y23.6896
G01 X24.1889 Y23.6891
G01 X25.7347 Y22.1433
G01 X25.7347 Y18.8991
G01 X25.7006 Y18.9219
G01 X25.6164 Y18.9723
G01 X25.5610 Y19.0019
G01 X25.4723 Y19.0439
G01 X25.4143 Y19.0679
G01 X25.3219 Y19.1010
G01 X25.2618 Y19.1192
G01 X25.1666 Y19.1430
G01 X25.1050 Y19.1553
G01 X25.0079 Y19.1697
G01 X24.9454 Y19.1759
G01 X24.8474 Y19.1807
G01 X24.7846 Y19.1807
G01 X24.6866 Y19.1759
G01 X24.6241 Y19.1697
G01 X24.5270 Y19.1553
G01 X24.4654 Y19.1430
G01 X24.3702 Y19.1192
G01 X24.3101 Y19.1010
G01 X24.2177 Y19.0679
G01 X24.1597 Y19.0439
G01 X24.0710 Y19.0019
G01 X24.0156 Y18.9723
G01 X23.9314 Y18.9219
G01 X23.8792 Y18.8870
G01 X23.8004 Y18.8285
G01 X23.7558 Y18.7919
G01 X16.2714 Y18.7919
G01 X16.2419 Y18.7912
G01 X16.1866 Y18.7887
G01 X16.1279 Y18.7832
G01 X16.0731 Y18.7756
G01 X16.0151 Y18.7648
G01 X15.9612 Y18.7521
G01 X15.9044 Y18.7360
G01 X15.8519 Y18.7185
G01 X15.7969 Y18.6972
G01 X15.7463 Y18.6749
G01 X15.6934 Y18.6486
G01 X15.6451 Y18.6217
G01 X15.5949 Y18.5907
G01 X15.5492 Y18.5595
G01 X15.5252 Y18.5423
G01 X5.5333 Y11.0162
G01 X5.5031 Y11.0070
G01 X5.4477 Y10.9872
G01 X5.3896 Y10.9632
G01 X5.3364 Y10.9380
G01 X5.2810 Y10.9084
G01 X5.2305 Y10.8781
G01 X5.1782 Y10.8432
G01 X5.1309 Y10.8081
G01 X5.0824 Y10.7682
G01 X5.0387 Y10.7287
G01 X5.0160 Y10.7070
G01 X0.4440 Y6.1350
G01 X0.4223 Y6.1123
G01 X0.3828 Y6.0686
G01 X0.3429 Y6.0201
G01 X0.3078 Y5.9728
G01 X0.2729 Y5.9205
G01 X0.2426 Y5.8700
G01 X0.2130 Y5.8146
G01 X0.1878 Y5.7614
G01 X0.1638 Y5.7033
G01 X0.1440 Y5.6479
G01 X0.1257 Y5.5878
G01 X0.1114 Y5.5306
G01 X0.0992 Y5.4690
G01 X0.0905 Y5.4107
G01 X0.0844 Y5.3482
G01 X0.0815 Y5.2894
G01 X0.0807 Y5.2580
G01 X0.0807 Y2.4640
G01 X0.0815 Y2.4326
G01 X0.0844 Y2.3738
G01 X0.0905 Y2.3113
G01 X0.0992 Y2.2530
G01 X0.1114 Y2.1914
G01 X0.1257 Y2.1342
G01 X0.1440 Y2.0741
G01 X0.1638 Y2.0187
G01 X0.1878 Y1.9606
G01 X0.2130 Y1.9074
G01 X0.2426 Y1.8520
G01 X0.2729 Y1.8015
G01 X0.3078 Y1.7492
G01 X0.3429 Y1.7019
G01 X0.3828 Y1.6534
G01 X0.4223 Y1.6097
G01 X0.4440 Y1.5870
G01 X2.4760 Y-0.4450
G01 X2.4987 Y-0.4667
G01 X2.5424 Y-0.5062
G01 X2.5909 Y-0.5461
G01 X2.6382 Y-0.5812
G01 X2.6905 Y-0.6161
G01 X2.7410 Y-0.6464
G01 X2.7964 Y-0.6760
G01 X2.8496 Y-0.7012
G01 X2.9077 Y-0.7252
G01 X2.9631 Y-0.7450
G01 X3.0232 Y-0.7633
G01 X3.0804 Y-0.7776
G01 X3.1420 Y-0.7898
G01 X3.2003 Y-0.7985
G01 X3.2628 Y-0.8046
G01 X3.3216 Y-0.8075
G01 X3.3530 Y-0.8083
G01 X17.1046 Y-0.8083
G01 X17.1360 Y-0.8075
G01 X17.1948 Y-0.8046
G01 X17.2573 Y-0.7985
G01 X17.3156 Y-0.7898
G01 X17.3772 Y-0.7776
G01 X17.4343 Y-0.7633
G01 X17.4944 Y-0.7450
G01 X17.5499 Y-0.7252
G01 X17.6079 Y-0.7012
G01 X17.6612 Y-0.6760
G01 X17.7166 Y-0.6464
G01 X17.7671 Y-0.6161
G01 X17.8193 Y-0.5812
G01 X17.8666 Y-0.5461
G01 X17.9152 Y-0.5062
G01 X17.9588 Y-0.4667
G01 X17.9816 Y-0.4450
G01 X20.2717 Y1.8451
G01 X20.2820 Y1.8456
G01 X20.3445 Y1.8517
G01 X20.4416 Y1.8661
G01 X20.5032 Y1.8784
G01 X20.5984 Y1.9022
G01 X20.6585 Y1.9205
G01 X20.7509 Y1.9535
G01 X20.8089 Y1.9776
G01 X20.8976 Y2.0195
G01 X20.9530 Y2.0491
G01 X21.0372 Y2.0996
G01 X21.0894 Y2.1345
G01 X21.1682 Y2.1929
G01 X21.2168 Y2.2328
G01 X21.2895 Y2.2987
G01 X21.3339 Y2.3431
G01 X21.3998 Y2.4158
G01 X21.4396 Y2.4644
G01 X21.4981 Y2.5432
G01 X21.5330 Y2.5954
G01 X21.5834 Y2.6796
G01 X21.6130 Y2.7350
G01 X21.6550 Y2.8237
G01 X21.6790 Y2.8817
G01 X21.7121 Y2.9741
G01 X21.7303 Y3.0342
G01 X21.7542 Y3.1294
G01 X21.7664 Y3.1910
G01 X21.7808 Y3.2881
G01 X21.7870 Y3.3506
G01 X21.7918 Y3.4486
G01 X21.7918 Y3.5114
G01 X21.7870 Y3.6094
G01 X21.7808 Y3.6719
G01 X21.7664 Y3.7690
G01 X21.7542 Y3.8306
G01 X21.7303 Y3.9258
G01 X21.7121 Y3.9859
G01 X21.6790 Y4.0783
G01 X21.6550 Y4.1363
G01 X21.6130 Y4.2250
G01 X21.5834 Y4.2804
G01 X21.5330 Y4.3646
G01 X21.4981 Y4.4168
G01 X21.4396 Y4.4956
G01 X21.3998 Y4.5442
G01 X21.3339 Y4.6169
G01 X21.2895 Y4.6613
G01 X21.2168 Y4.7272
G01 X21.1682 Y4.7671
G01 X21.0894 Y4.8255
G01 X21.0372 Y4.8604
G01 X20.9530 Y4.9109
G01 X20.8976 Y4.9405
G01 X20.8089 Y4.9824
G01 X20.7509 Y5.0065
G01 X20.6585 Y5.0395
G01 X20.5984 Y5.0578
G01 X20.5032 Y5.0816
G01 X20.4416 Y5.0939
G01 X20.3445 Y5.1083
G01 X20.2820 Y5.1144
G01 X20.1840 Y5.1192
G01 X20.1212 Y5.1192
G01 X20.0231 Y5.1144
G01 X19.9606 Y5.1083
G01 X19.8636 Y5.0939
G01 X19.8020 Y5.0816
G01 X19.7068 Y5.0578
G01 X19.6467 Y5.0395
G01 X19.5543 Y5.0065
G01 X19.4962 Y4.9824
G01 X19.4075 Y4.9405
G01 X19.3521 Y4.9109
G01 X19.2680 Y4.8604
G01 X19.2157 Y4.8255
G01 X19.1369 Y4.7671
G01 X19.0884 Y4.7272
G01 X19.0157 Y4.6613
G01 X18.9712 Y4.6169
G01 X18.9053 Y4.5442
G01 X18.8655 Y4.4956
G01 X18.8070 Y4.4168
G01 X18.7721 Y4.3646
G01 X18.7217 Y4.2804
G01 X18.6921 Y4.2250
G01 X18.6501 Y4.1363
G01 X18.6261 Y4.0783
G01 X18.5930 Y3.9859
G01 X18.5748 Y3.9258
G01 X18.5510 Y3.8306
G01 X18.5387 Y3.7690
G01 X18.5243 Y3.6719
G01 X18.5181 Y3.6094
G01 X18.5176 Y3.5991
G01 X16.5908 Y1.6723
G01 X3.8667 Y1.6723
G01 X2.5613 Y2.9777
G01 X2.5613 Y4.7443
G01 X4.7967 Y6.9796
G00 Z2.0000
G00 X4.9741 Y7.4116
G01 F60.00
G01 Z-0.0900
G01 F120.00
G01 X4.9893 Y4.8568
G01 X4.9417 Y4.8043
G01 X4.9131 Y4.7694
G01 X4.8546 Y4.6906
G01 X4.8295 Y4.6531
G01 X4.7791 Y4.5689
G01 X4.7578 Y4.5291
G01 X4.7158 Y4.4404
G01 X4.6986 Y4.3987
G01 X4.6655 Y4.3063
G01 X4.6524 Y4.2631
G01 X4.6286 Y4.1679
G01 X4.6198 Y4.1236
G01 X4.6054 Y4.0265
G01 X4.6009 Y3.9816
G01 X4.5961 Y3.8836
G01 X4.5961 Y3.8384
G01 X4.6009 Y3.7404
G01 X4.6054 Y3.6955
G01 X4.6198 Y3.5984
G01 X4.6286 Y3.5541
G01 X4.6524 Y3.4589
G01 X4.6655 Y3.4157
G01 X4.6986 Y3.3233
G01 X4.7158 Y3.2816
G01 X4.7578 Y3.1929
G01 X4.7791 Y3.1531
G01 X4.8295 Y3.0689
G01 X4.8546 Y3.0314
G01 X4.9131 Y2.9526
G01 X4.9417 Y2.9177
G01 X5.0076 Y2.8450
G01 X5.0395 Y2.8131
G01 X5.1122 Y2.7472
G01 X5.1471 Y2.7185
G01 X5.2260 Y2.6601
G01 X5.2635 Y2.6350
G01 X5.3477 Y2.5845
G01 X5.3875 Y2.5632
G01 X5.4762 Y2.5213
G01 X5.5179 Y2.5040
G01 X5.6103 Y2.4709
G01 X5.6535 Y2.4578
G01 X5.7487 Y2.4340
G01 X5.7930 Y2.4252
G01 X5.8900 Y2.4108
G01 X5.9350 Y2.4064
G01 X6.0330 Y2.4016
G01 X6.0781 Y2.4016
G01 X6.1761 Y2.4064
G01 X6.2211 Y2.4108
G01 X6.3181 Y2.4252
G01 X6.3624 Y2.4340
G01 X6.4576 Y2.4578
G01 X6.5008 Y2.4709
G01 X6.5932 Y2.5040
G01 X6.6349 Y2.5213
G01 X6.7236 Y2.5632
G01 X6.7634 Y2.5845
G01 X6.8476 Y2.6350
G01 X6.8852 Y2.6601
G01 X6.9640 Y2.7185
G01 X6.9989 Y2.7472
G01 X7.0716 Y2.8131
G01 X7.1035 Y2.8450
G01 X7.1694 Y2.9177
G01 X7.1980 Y2.9526
G01 X7.2565 Y3.0314
G01 X7.2816 Y3.0689
G01 X7.3320 Y3.1531
G01 X7.3533 Y3.1929
G01 X7.3953 Y3.2816
G01 X7.4125 Y3.3233
G01 X7.4456 Y3.4157
G01 X7.4587 Y3.4589
G01 X7.4826 Y3.5541
G01 X7.4914 Y3.5984
G01 X7.5058 Y3.6955
G01 X7.5102 Y3.7404
G01 X7.5150 Y3.8384
G01 X7.5150 Y3.8836
G01 X7.5102 Y3.9816
G01 X7.5058 Y4.0265
G01 X7.4914 Y4.1236
G01 X7.4826 Y4.1679
G01 X7.4587 Y4.2631
G01 X7.4456 Y4.3063
G01 X7.4125 Y4.3987
G01 X7.3953 Y4.4404
G01 X7.3533 Y4.5291
G01 X7.3320 Y4.5689
G01 X7.2816 Y4.6531
G01 X7.2565 Y4.6906
G01 X7.1980 Y4.7694
G01 X7.1694 Y4.8043
G01 X7.1099 Y4.8700
G01 X7.0835 Y9.3036
G01 X16.6261 Y16.4913
G01 X23.8024 Y16.4913
G01 X23.8727 Y16.4276
G01 X23.9076 Y16.3990
G01 X23.9864 Y16.3405
G01 X24.0239 Y16.3154
G01 X24.1081 Y16.2650
G01 X24.1479 Y16.2437
G01 X24.2366 Y16.2017
G01 X24.2783 Y16.1845
G01 X24.3707 Y16.1514
G01 X24.4139 Y16.1383
G01 X24.5091 Y16.1144
G01 X24.5534 Y16.1056
G01 X24.6505 Y16.0912
G01 X24.6954 Y16.0868
G01 X24.7934 Y16.0820
G01 X24.8386 Y16.0820
G01 X24.9366 Y16.0868
G01 X24.9815 Y16.0912
G01 X25.0786 Y16.1056
G01 X25.1229 Y16.1144
G01 X25.2181 Y16.1383
G01 X25.2613 Y16.1514
G01 X25.3537 Y16.1845
G01 X25.3954 Y16.2017
G01 X25.4841 Y16.2437
G01 X25.5239 Y16.2650
G01 X25.6081 Y16.3154
G01 X25.6456 Y16.3405
G01 X25.7244 Y16.3990
G01 X25.7593 Y16.4276
G01 X25.8320 Y16.4935
G01 X25.8639 Y16.5254
G01 X25.9147 Y16.5814
G01 X25.9147 Y15.7302
G01 X24.0663 Y13.8817
G01 X24.0507 Y13.8654
G01 X24.0111 Y13.8217
G01 X23.9825 Y13.7868
G01 X23.9474 Y13.7395
G01 X23.9223 Y13.7020
G01 X23.9048 Y13.6727
G01 X23.8727 Y13.6464
G01 X23.8036 Y13.5838
G01 X19.3487 Y13.5573
G01 X19.3261 Y13.5566
G01 X19.2673 Y13.5534
G01 X19.2224 Y13.5487
G01 X19.1639 Y13.5396
G01 X19.1549 Y13.5414
G01 X19.1103 Y13.5482
G01 X19.0517 Y13.5541
G01 X19.0066 Y13.5565
G01 X18.9477 Y13.5567
G01 X18.9026 Y13.5546
G01 X18.8439 Y13.5490
G01 X18.7993 Y13.5425
G01 X18.7415 Y13.5312
G01 X18.6976 Y13.5203
G01 X18.6412 Y13.5034
G01 X18.5987 Y13.4883
G01 X18.5442 Y13.4659
G01 X18.5033 Y13.4467
G01 X18.4513 Y13.4191
G01 X18.4125 Y13.3960
G01 X18.3634 Y13.3635
G01 X18.3271 Y13.3367
G01 X18.2814 Y13.2994
G01 X18.2479 Y13.2692
G01 X18.2061 Y13.2277
G01 X18.1905 Y13.2114
G01 X10.9936 Y5.3181
G01 X10.9438 Y5.3156
G01 X10.8989 Y5.3112
G01 X10.8018 Y5.2968
G01 X10.7576 Y5.2880
G01 X10.6624 Y5.2642
G01 X10.6192 Y5.2511
G01 X10.5268 Y5.2180
G01 X10.4851 Y5.2007
G01 X10.3964 Y5.1588
G01 X10.3565 Y5.1375
G01 X10.2724 Y5.0870
G01 X10.2348 Y5.0619
G01 X10.1560 Y5.0035
G01 X10.1211 Y4.9748
G01 X10.0484 Y4.9089
G01 X10.0165 Y4.8770
G01 X9.9506 Y4.8043
G01 X9.9219 Y4.7694
G01 X9.8635 Y4.6906
G01 X9.8384 Y4.6531
G01 X9.7880 Y4.5689
G01 X9.7667 Y4.5291
G01 X9.7247 Y4.4404
G01 X9.7074 Y4.3987
G01 X9.6744 Y4.3063
G01 X9.6613 Y4.2631
G01 X9.6374 Y4.1679
G01 X9.6286 Y4.1236
G01 X9.6142 Y4.0265
G01 X9.6098 Y3.9816
G01 X9.6050 Y3.8836
G01 X9.6050 Y3.8384
G01 X9.6098 Y3.7404
G01 X9.6142 Y3.6955
G01 X9.6286 Y3.5984
G01 X9.6374 Y3.5541
G01 X9.6613 Y3.4589
G01 X9.6744 Y3.4157
G01 X9.7074 Y3.3233
G01 X9.7247 Y3.2816
G01 X9.7667 Y3.1929
G01 X9.7880 Y3.1531
G01 X9.8384 Y3.0689
G01 X9.8635 Y3.0314
G01 X9.9219 Y2.9526
G01 X9.9506 Y2.9177
G01 X10.0165 Y2.8450
G01 X10.0484 Y2.8131
G01 X10.1211 Y2.7472
G01 X10.1560 Y2.7185
G01 X10.2348 Y2.6601
G01 X10.2724 Y2.6350
G01 X10.3565 Y2.5845
G01 X10.3964 Y2.5632
G01 X10.4851 Y2.5213
G01 X10.5268 Y2.5040
G01 X10.6192 Y2.4709
G01 X10.6624 Y2.4578
G01 X10.7576 Y2.4340
G01 X10.8018 Y2.4252
G01 X10.8989 Y2.4108
G01 X10.9438 Y2.4064
G01 X11.0419 Y2.4016
G01 X11.0870 Y2.4016
G01 X11.1850 Y2.4064
G01 X11.2299 Y2.4108
G01 X11.3270 Y2.4252
G01 X11.3713 Y2.4340
G01 X11.4665 Y2.4578
G01 X11.5097 Y2.4709
G01 X11.6021 Y2.5040
G01 X11.6438 Y2.5213
G01 X11.7325 Y2.5632
G01 X11.7723 Y2.5845
G01 X11.8565 Y2.6350
G01 X11.8940 Y2.6601
G01 X11.9728 Y2.7185
G01 X12.0077 Y2.7472
G01 X12.0805 Y2.8131
G01 X12.1124 Y2.8450
G01 X12.1783 Y2.9177
G01 X12.2069 Y2.9526
G01 X12.2654 Y3.0314
G01 X12.2905 Y3.0689
G01 X12.3409 Y3.1531
G01 X12.3622 Y3.1929
G01 X12.4041 Y3.2816
G01 X12.4214 Y3.3233
G01 X12.4545 Y3.4157
G01 X12.4676 Y3.4589
G01 X12.4914 Y3.5541
G01 X12.5002 Y3.5984
G01 X12.5146 Y3.6955
G01 X12.5191 Y3.7404
G01 X12.5239 Y3.8384
G01 X12.5239 Y3.8490
G01 X15.7320 Y7.3675
G01 X20.0120 Y7.2570
G01 X23.7050 Y3.5639
G01 X23.7020 Y3.5026
G01 X23.7020 Y3.4574
G01 X23.7068 Y3.3594
G01 X23.7112 Y3.3145
G01 X23.7256 Y3.2174
G01 X23.7344 Y3.1731
G01 X23.7583 Y3.0779
G01 X23.7714 Y3.0347
G01 X23.8044 Y2.9423
G01 X23.8217 Y2.9006
G01 X23.8637 Y2.8119
G01 X23.8850 Y2.7721
G01 X23.9354 Y2.6879
G01 X23.9605 Y2.6504
G01 X24.0189 Y2.5716
G01 X24.0476 Y2.5367
G01 X24.1135 Y2.4640
G01 X24.1454 Y2.4321
G01 X24.2181 Y2.3662
G01 X24.2530 Y2.3375
G01 X24.3318 Y2.2791
G01 X24.3694 Y2.2540
G01 X24.4535 Y2.2035
G01 X24.4934 Y2.1822
G01 X24.5821 Y2.1403
G01 X24.6238 Y2.1230
G01 X24.7162 Y2.0899
G01 X24.7594 Y2.0768
G01 X24.8546 Y2.0530
G01 X24.8988 Y2.0442
G01 X24.9959 Y2.0298
G01 X25.0408 Y2.0254
G01 X25.1389 Y2.0206
G01 X25.1840 Y2.0206
G01 X25.2820 Y2.0254
G01 X25.3269 Y2.0298
G01 X25.4240 Y2.0442
G01 X25.4683 Y2.0530
G01 X25.5635 Y2.0768
G01 X25.6067 Y2.0899
G01 X25.6991 Y2.1230
G01 X25.7408 Y2.1403
G01 X25.8295 Y2.1822
G01 X25.8693 Y2.2035
G01 X25.9535 Y2.2540
G01 X25.9910 Y2.2791
G01 X26.0698 Y2.3375
G01 X26.1047 Y2.3662
G01 X26.1775 Y2.4321
G01 X26.2094 Y2.4640
G01 X26.2753 Y2.5367
G01 X26.3039 Y2.5716
G01 X26.3624 Y2.6504
G01 X26.3875 Y2.6879
G01 X26.4379 Y2.7721
G01 X26.4592 Y2.8119
G01 X26.5011 Y2.9006
G01 X26.5184 Y2.9423
G01 X26.5515 Y3.0347
G01 X26.5646 Y3.0779
G01 X26.5884 Y3.1731
G01 X26.5972 Y3.2174
G01 X26.6116 Y3.3145
G01 X26.6161 Y3.3594
G01 X26.6209 Y3.4574
G01 X26.6209 Y3.5026
G01 X26.6161 Y3.6006
G01 X26.6116 Y3.6455
G01 X26.5972 Y3.7426
G01 X26.5884 Y3.7869
G01 X26.5646 Y3.8821
G01 X26.5515 Y3.9253
G01 X26.5184 Y4.0177
G01 X26.5011 Y4.0594
G01 X26.4592 Y4.1481
G01 X26.4379 Y4.1879
G01 X26.3875 Y4.2721
G01 X26.3624 Y4.3096
G01 X26.3039 Y4.3884
G01 X26.2753 Y4.4233
G01 X26.2094 Y4.4960
G01 X26.1775 Y4.5279
G01 X26.1047 Y4.5938
G01 X26.0698 Y4.6225
G01 X25.9910 Y4.6809
G01 X25.9535 Y4.7060
G01 X25.8693 Y4.7565
G01 X25.8295 Y4.7778
G01 X25.7408 Y4.8197
G01 X25.6991 Y4.8370
G01 X25.6067 Y4.8701
G01 X25.5635 Y4.8832
G01 X25.4683 Y4.9070
G01 X25.4240 Y4.9158
G01 X25.3396 Y4.9283
G01 X21.2122 Y9.0557
G01 X21.1964 Y9.0708
G01 X21.1542 Y9.1091
G01 X21.1206 Y9.1370
G01 X21.0750 Y9.1711
G01 X21.0388 Y9.1956
G01 X20.9902 Y9.2253
G01 X20.9519 Y9.2462
G01 X20.9007 Y9.2712
G01 X20.8605 Y9.2884
G01 X20.8072 Y9.3084
G01 X20.7656 Y9.3217
G01 X20.7106 Y9.3365
G01 X20.6679 Y9.3459
G01 X20.6118 Y9.3554
G01 X20.5684 Y9.3607
G01 X20.5116 Y9.3649
G01 X20.4898 Y9.3659
G01 X17.6216 Y9.4400
G01 X19.4426 Y11.4372
G01 X23.8235 Y11.4633
G01 X23.8727 Y11.4187
G01 X23.9076 Y11.3901
G01 X23.9864 Y11.3316
G01 X24.0239 Y11.3065
G01 X24.1081 Y11.2561
G01 X24.1479 Y11.2348
G01 X24.2366 Y11.1928
G01 X24.2783 Y11.1756
G01 X24.3707 Y11.1425
G01 X24.4139 Y11.1294
G01 X24.5091 Y11.1056
G01 X24.5534 Y11.0967
G01 X24.6505 Y11.0823
G01 X24.6954 Y11.0779
G01 X24.7934 Y11.0731
G01 X24.8386 Y11.0731
G01 X24.9366 Y11.0779
G01 X24.9815 Y11.0823
G01 X25.0786 Y11.0967
G01 X25.1229 Y11.1056
G01 X25.2181 Y11.1294
G01 X25.2613 Y11.1425
G01 X25.3537 Y11.1756
G01 X25.3954 Y11.1928
G01 X25.4841 Y11.2348
G01 X25.5239 Y11.2561
G01 X25.6081 Y11.3065
G01 X25.6456 Y11.3316
G01 X25.7244 Y11.3901
G01 X25.7593 Y11.4187
G01 X25.8320 Y11.4846
G01 X25.8639 Y11.5165
G01 X25.9298 Y11.5892
G01 X25.9585 Y11.6241
G01 X26.0169 Y11.7030
G01 X26.0420 Y11.7405
G01 X26.0591 Y11.7691
G01 X26.0937 Y11.8037
G01 X26.1330 Y11.8476
G01 X26.1614 Y11.8827
G01 X26.1962 Y11.9302
G01 X26.2211 Y11.9679
G01 X26.2510 Y12.0186
G01 X26.2721 Y12.0585
G01 X26.2970 Y12.1119
G01 X26.3140 Y12.1537
G01 X26.3335 Y12.2093
G01 X26.3464 Y12.2526
G01 X26.3603 Y12.3098
G01 X26.3689 Y12.3542
G01 X26.3772 Y12.4125
G01 X26.3813 Y12.4574
G01 X26.3839 Y12.5163
G01 X26.3836 Y12.5614
G01 X26.3804 Y12.6203
G01 X26.3757 Y12.6652
G01 X26.3667 Y12.7234
G01 X26.3576 Y12.7676
G01 X26.3429 Y12.8247
G01 X26.3296 Y12.8678
G01 X26.3094 Y12.9231
G01 X26.2919 Y12.9647
G01 X26.2664 Y13.0178
G01 X26.2434 Y13.0599
G01 X27.7247 Y14.5413
G01 X27.7403 Y14.5576
G01 X27.7799 Y14.6013
G01 X27.8085 Y14.6362
G01 X27.8436 Y14.6835
G01 X27.8687 Y14.7210
G01 X27.8990 Y14.7715
G01 X27.9203 Y14.8113
G01 X27.9454 Y14.8646
G01 X27.9627 Y14.9063
G01 X27.9826 Y14.9618
G01 X27.9957 Y15.0050
G01 X28.0100 Y15.0621
G01 X28.0188 Y15.1064
G01 X28.0274 Y15.1647
G01 X28.0319 Y15.2096
G01 X28.0347 Y15.2684
G01 X28.0353 Y15.2910
G01 X28.0353 Y22.6570
G01 X28.0347 Y22.6796
G01 X28.0319 Y22.7384
G01 X28.0274 Y22.7833
G01 X28.0188 Y22.8416
G01 X28.0100 Y22.8859
G01 X27.9957 Y22.9430
G01 X27.9826 Y22.9862
G01 X27.9627 Y23.0417
G01 X27.9454 Y23.0834
G01 X27.9203 Y23.1367
G01 X27.8990 Y23.1765
G01 X27.8687 Y23.2270
G01 X27.8436 Y23.2645
G01 X27.8085 Y23.3118
G01 X27.7799 Y23.3467
G01 X27.7403 Y23.3904
G01 X27.7247 Y23.4067
G01 X25.7665 Y25.3649
G01 X25.7626 Y25.4446
G01 X25.7582 Y25.4895
G01 X25.7438 Y25.5866
G01 X25.7350 Y25.6309
G01 X25.7112 Y25.7261
G01 X25.6981 Y25.7693
G01 X25.6650 Y25.8617
G01 X25.6477 Y25.9034
G01 X25.6058 Y25.9921
G01 X25.5845 Y26.0319
G01 X25.5340 Y26.1161
G01 X25.5089 Y26.1536
G01 X25.4505 Y26.2324
G01 X25.4218 Y26.2673
G01 X25.3559 Y26.3400
G01 X25.3240 Y26.3719
G01 X25.2513 Y26.4378
G01 X25.2164 Y26.4665
G01 X25.1376 Y26.5249
G01 X25.1001 Y26.5500
G01 X25.0159 Y26.6005
G01 X24.9761 Y26.6218
G01 X24.8874 Y26.6637
G01 X24.8457 Y26.6810
G01 X24.7533 Y26.7141
G01 X24.7101 Y26.7272
G01 X24.6149 Y26.7510
G01 X24.5706 Y26.7598
G01 X24.4735 Y26.7742
G01 X24.4286 Y26.7786
G01 X24.3306 Y26.7834
G01 X24.2854 Y26.7834
G01 X24.1874 Y26.7786
G01 X24.1425 Y26.7742
G01 X24.0454 Y26.7598
G01 X24.0011 Y26.7510
G01 X23.9059 Y26.7272
G01 X23.8627 Y26.7141
G01 X23.7703 Y26.6810
G01 X23.7286 Y26.6637
G01 X23.6399 Y26.6218
G01 X23.6001 Y26.6005
G01 X23.5159 Y26.5500
G01 X23.4784 Y26.5249
G01 X23.3996 Y26.4665
G01 X23.3647 Y26.4378
G01 X23.2920 Y26.3719
G01 X23.2601 Y26.3400
G01 X23.1942 Y26.2673
G01 X23.1655 Y26.2324
G01 X23.1071 Y26.1536
G01 X23.0820 Y26.1161
G01 X23.0315 Y26.0319
G01 X23.0102 Y25.9921
G01 X22.9683 Y25.9034
G01 X22.9510 Y25.8617
G01 X22.9179 Y25.7693
G01 X22.9048 Y25.7261
G01 X22.8810 Y25.6309
G01 X22.8722 Y25.5866
G01 X22.8578 Y25.4895
G01 X22.8534 Y25.4446
G01 X22.8486 Y25.3466
G01 X22.8486 Y25.3014
G01 X22.8534 Y25.2034
G01 X22.8578 Y25.1585
G01 X22.8722 Y25.0614
G01 X22.8810 Y25.0171
G01 X22.9048 Y24.9219
G01 X22.9179 Y24.8787
G01 X22.9510 Y24.7863
G01 X22.9683 Y24.7446
G01 X23.0102 Y24.6559
G01 X23.0315 Y24.6161
G01 X23.0820 Y24.5319
G01 X23.1071 Y24.4944
G01 X23.1655 Y24.4156
G01 X23.1942 Y24.3807
G01 X23.2601 Y24.3080
G01 X23.2920 Y24.2761
G01 X23.3647 Y24.2102
G01 X23.3996 Y24.1815
G01 X23.4784 Y24.1231
G01 X23.5159 Y24.0980
G01 X23.6001 Y24.0475
G01 X23.6399 Y24.0262
G01 X23.7286 Y23.9843
G01 X23.7703 Y23.9670
G01 X23.8627 Y23.9339
G01 X23.9059 Y23.9208
G01 X24.0011 Y23.8970
G01 X24.0454 Y23.8882
G01 X24.1425 Y23.8738
G01 X24.1874 Y23.8694
G01 X24.2671 Y23.8655
G01 X25.9147 Y22.2178
G01 X25.9147 Y18.5015
G01 X25.8639 Y18.5575
G01 X25.8320 Y18.5894
G01 X25.7593 Y18.6553
G01 X25.7244 Y18.6839
G01 X25.6456 Y18.7424
G01 X25.6081 Y18.7675
G01 X25.5239 Y18.8179
G01 X25.4841 Y18.8392
G01 X25.3954 Y18.8812
G01 X25.3537 Y18.8984
G01 X25.2613 Y18.9315
G01 X25.2181 Y18.9446
G01 X25.1229 Y18.9684
G01 X25.0786 Y18.9772
G01 X24.9815 Y18.9916
G01 X24.9366 Y18.9961
G01 X24.8386 Y19.0009
G01 X24.7934 Y19.0009
G01 X24.6954 Y18.9961
G01 X24.6505 Y18.9916
G01 X24.5534 Y18.9772
G01 X24.5091 Y18.9684
G01 X24.4139 Y18.9446
G01 X24.3707 Y18.9315
G01 X24.2783 Y18.8984
G01 X24.2366 Y18.8812
G01 X24.1479 Y18.8392
G01 X24.1081 Y18.8179
G01 X24.0239 Y18.7675
G01 X23.9864 Y18.7424
G01 X23.9076 Y18.6839
G01 X23.8727 Y18.6553
G01 X23.8248 Y18.6119
G01 X16.2714 Y18.6119
G01 X16.2502 Y18.6114
G01 X16.1949 Y18.6089
G01 X16.1527 Y18.6050
G01 X16.0979 Y18.5973
G01 X16.0562 Y18.5895
G01 X16.0023 Y18.5769
G01 X15.9615 Y18.5653
G01 X15.9090 Y18.5478
G01 X15.8695 Y18.5325
G01 X15.8188 Y18.5102
G01 X15.7809 Y18.4913
G01 X15.7325 Y18.4644
G01 X15.6964 Y18.4421
G01 X15.6507 Y18.4109
G01 X15.6335 Y18.3985
G01 X5.6156 Y10.8528
G01 X5.6070 Y10.8507
G01 X5.5638 Y10.8376
G01 X5.5083 Y10.8177
G01 X5.4666 Y10.8004
G01 X5.4133 Y10.7753
G01 X5.3735 Y10.7540
G01 X5.3230 Y10.7237
G01 X5.2855 Y10.6986
G01 X5.2382 Y10.6635
G01 X5.2033 Y10.6349
G01 X5.1596 Y10.5953
G01 X5.1433 Y10.5797
G01 X0.5713 Y6.0077
G01 X0.5557 Y5.9914
G01 X0.5161 Y5.9477
G01 X0.4875 Y5.9128
G01 X0.4524 Y5.8655
G01 X0.4273 Y5.8280
G01 X0.3970 Y5.7775
G01 X0.3757 Y5.7377
G01 X0.3506 Y5.6844
G01 X0.3333 Y5.6427
G01 X0.3134 Y5.5872
G01 X0.3003 Y5.5440
G01 X0.2860 Y5.4869
G01 X0.2772 Y5.4426
G01 X0.2686 Y5.3843
G01 X0.2641 Y5.3394
G01 X0.2613 Y5.2806
G01 X0.2607 Y5.2580
G01 X0.2607 Y2.4640
G01 X0.2613 Y2.4414
G01 X0.2641 Y2.3826
G01 X0.2686 Y2.3377
G01 X0.2772 Y2.2794
G01 X0.2860 Y2.2351
G01 X0.3003 Y2.1780
G01 X0.3134 Y2.1348
G01 X0.3333 Y2.0793
G01 X0.3506 Y2.0376
G01 X0.3757 Y1.9843
G01 X0.3970 Y1.9445
G01 X0.4273 Y1.8940
G01 X0.4524 Y1.8565
G01 X0.4875 Y1.8092
G01 X0.5161 Y1.7743
G01 X0.5557 Y1.7306
G01 X0.5713 Y1.7143
G01 X2.6033 Y-0.3177
G01 X2.6196 Y-0.3333
G01 X2.6633 Y-0.3729
G01 X2.6982 Y-0.4015
G01 X2.7455 Y-0.4366
G01 X2.7830 Y-0.4617
G01 X2.8335 Y-0.4920
G01 X2.8733 Y-0.5133
G01 X2.9266 Y-0.5384
G01 X2.9683 Y-0.5557
G01 X3.0238 Y-0.5756
G01 X3.0670 Y-0.5887
G01 X3.1241 Y-0.6030
G01 X3.1684 Y-0.6118
G01 X3.2267 Y-0.6204
G01 X3.2716 Y-0.6249
G01 X3.3304 Y-0.6277
G01 X3.3530 Y-0.6283
G01 X17.1046 Y-0.6283
G01 X17.1271 Y-0.6277
G01 X17.1860 Y-0.6249
G01 X17.2309 Y-0.6204
G01 X17.2892 Y-0.6118
G01 X17.3334 Y-0.6030
G01 X17.3906 Y-0.5887
G01 X17.4338 Y-0.5756
G01 X17.4893 Y-0.5557
G01 X17.5310 Y-0.5384
G01 X17.5842 Y-0.5133
G01 X17.6240 Y-0.4920
G01 X17.6746 Y-0.4617
G01 X17.7121 Y-0.4366
G01 X17.7594 Y-0.4015
G01 X17.7943 Y-0.3729
G01 X17.8380 Y-0.3333
G01 X17.8543 Y-0.3177
G01 X20.1935 Y2.0215
G01 X20.2731 Y2.0254
G01 X20.3181 Y2.0298
G01 X20.4151 Y2.0442
G01 X20.4594 Y2.0530
G01 X20.5546 Y2.0768
G01 X20.5978 Y2.0899
G01 X20.6902 Y2.1230
G01 X20.7319 Y2.1403
G01 X20.8206 Y2.1822
G01 X20.8604 Y2.2035
G01 X20.9446 Y2.2540
G01 X20.9822 Y2.2791
G01 X21.0610 Y2.3375
G01 X21.0959 Y2.3662
G01 X21.1686 Y2.4321
G01 X21.2005 Y2.4640
G01 X21.2664 Y2.5367
G01 X21.2950 Y2.5716
G01 X21.3535 Y2.6504
G01 X21.3786 Y2.6879
G01 X21.4290 Y2.7721
G01 X21.4503 Y2.8119
G01 X21.4923 Y2.9006
G01 X21.5095 Y2.9423
G01 X21.5426 Y3.0347
G01 X21.5557 Y3.0779
G01 X21.5796 Y3.1731
G01 X21.5884 Y3.2174
G01 X21.6028 Y3.3145
G01 X21.6072 Y3.3594
G01 X21.6120 Y3.4574
G01 X21.6120 Y3.5026
G01 X21.6072 Y3.6006
G01 X21.6028 Y3.6455
G01 X21.5884 Y3.7426
G01 X21.5796 Y3.7869
G01 X21.5557 Y3.8821
G01 X21.5426 Y3.9253
G01 X21.5095 Y4.0177
G01 X21.4923 Y4.0594
G01 X21.4503 Y4.1481
G01 X21.4290 Y4.1879
G01 X21.3786 Y4.2721
G01 X21.3535 Y4.3096
G01 X21.2950 Y4.3884
G01 X21.2664 Y4.4233
G01 X21.2005 Y4.4960
G01 X21.1686 Y4.5279
G01 X21.0959 Y4.5938
G01 X21.0610 Y4.6225
G01 X20.9822 Y4.6809
G01 X20.9446 Y4.7060
G01 X20.8604 Y4.7565
G01 X20.8206 Y4.7778
G01 X20.7319 Y4.8197
G01 X20.6902 Y4.8370
G01 X20.5978 Y4.8701
G01 X20.5546 Y4.8832
G01 X20.4594 Y4.9070
G01 X20.4151 Y4.9158
G01 X20.3181 Y4.9302
G01 X20.2731 Y4.9346
G01 X20.1751 Y4.9394
G01 X20.1300 Y4.9394
G01 X20.0320 Y4.9346
G01 X19.9870 Y4.9302
G01 X19.8900 Y4.9158
G01 X19.8457 Y4.9070
G01 X19.7505 Y4.8832
G01 X19.7073 Y4.8701
G01 X19.6149 Y4.8370
G01 X19.5732 Y4.8197
G01 X19.4845 Y4.7778
G01 X19.4447 Y4.7565
G01 X19.3605 Y4.7060
G01 X19.3230 Y4.6809
G01 X19.2441 Y4.6225
G01 X19.2092 Y4.5938
G01 X19.1365 Y4.5279
G01 X19.1046 Y4.4960
G01 X19.0387 Y4.4233
G01 X19.0101 Y4.3884
G01 X18.9516 Y4.3096
G01 X18.9265 Y4.2721
G01 X18.8761 Y4.1879
G01 X18.8548 Y4.1481
G01 X18.8128 Y4.0594
G01 X18.7956 Y4.0177
G01 X18.7625 Y3.9253
G01 X18.7494 Y3.8821
G01 X18.7256 Y3.7869
G01 X18.7168 Y3.7426
G01 X18.7024 Y3.6455
G01 X18.6979 Y3.6006
G01 X18.6940 Y3.5209
G01 X16.6654 Y1.4923
G01 X3.7922 Y1.4923
G01 X2.3813 Y2.9032
G01 X2.3813 Y4.8188
G01 X4.9741 Y7.4116
G00 Z2.0000
G00 X5.1515 Y7.8436
G01 F60.00
G01 Z-0.0900
G01 F120.00
G01 X5.1697 Y4.7840
G01 X5.1604 Y4.7756
G01 X5.1410 Y4.7561
G01 X5.0751 Y4.6834
G01 X5.0577 Y4.6622
G01 X4.9992 Y4.5834
G01 X4.9839 Y4.5605
G01 X4.9335 Y4.4763
G01 X4.9205 Y4.4521
G01 X4.8786 Y4.3634
G01 X4.8680 Y4.3380
G01 X4.8350 Y4.2456
G01 X4.8270 Y4.2193
G01 X4.8032 Y4.1241
G01 X4.7978 Y4.0972
G01 X4.7834 Y4.0001
G01 X4.7807 Y3.9728
G01 X4.7759 Y3.8747
G01 X4.7759 Y3.8473
G01 X4.7807 Y3.7492
G01 X4.7834 Y3.7219
G01 X4.7978 Y3.6248
G01 X4.8032 Y3.5979
G01 X4.8270 Y3.5027
G01 X4.8350 Y3.4764
G01 X4.8680 Y3.3840
G01 X4.8786 Y3.3586
G01 X4.9205 Y3.2699
G01 X4.9335 Y3.2457
G01 X4.9839 Y3.1615
G01 X4.9992 Y3.1386
G01 X5.0577 Y3.0598
G01 X5.0751 Y3.0386
G01 X5.1410 Y2.9659
G01 X5.1604 Y2.9464
G01 X5.2331 Y2.8805
G01 X5.2544 Y2.8631
G01 X5.3332 Y2.8046
G01 X5.3560 Y2.7894
G01 X5.4402 Y2.7389
G01 X5.4644 Y2.7260
G01 X5.5532 Y2.6840
G01 X5.5785 Y2.6735
G01 X5.6709 Y2.6404
G01 X5.6972 Y2.6325
G01 X5.7924 Y2.6086
G01 X5.8194 Y2.6032
G01 X5.9165 Y2.5888
G01 X5.9438 Y2.5862
G01 X6.0418 Y2.5813
G01 X6.0693 Y2.5813
G01 X6.1673 Y2.5862
G01 X6.1947 Y2.5888
G01 X6.2917 Y2.6032
G01 X6.3187 Y2.6086
G01 X6.4139 Y2.6325
G01 X6.4402 Y2.6404
G01 X6.5326 Y2.6735
G01 X6.5580 Y2.6840
G01 X6.6467 Y2.7260
G01 X6.6709 Y2.7389
G01 X6.7551 Y2.7894
G01 X6.7779 Y2.8046
G01 X6.8567 Y2.8631
G01 X6.8780 Y2.8805
G01 X6.9507 Y2.9464
G01 X6.9701 Y2.9659
G01 X7.0360 Y3.0386
G01 X7.0535 Y3.0598
G01 X7.1119 Y3.1386
G01 X7.1272 Y3.1615
G01 X7.1776 Y3.2457
G01 X7.1906 Y3.2699
G01 X7.2326 Y3.3586
G01 X7.2431 Y3.3840
G01 X7.2761 Y3.4764
G01 X7.2841 Y3.5027
G01 X7.3080 Y3.5979
G01 X7.3133 Y3.6248
G01 X7.3277 Y3.7219
G01 X7.3304 Y3.7492
G01 X7.3352 Y3.8473
G01 X7.3352 Y3.8747
G01 X7.3304 Y3.9728
G01 X7.3277 Y4.0001
G01 X7.3133 Y4.0972
G01 X7.3080 Y4.1241
G01 X7.2841 Y4.2193
G01 X7.2761 Y4.2456
G01 X7.2431 Y4.3380
G01 X7.2326 Y4.3634
G01 X7.1906 Y4.4521
G01 X7.1776 Y4.4763
G01 X7.1272 Y4.5605
G01 X7.1119 Y4.5834
G01 X7.0535 Y4.6622
G01 X7.0360 Y4.6834
G01 X6.9701 Y4.7561
G01 X6.9507 Y4.7756
G01 X6.9303 Y4.7940
G01 X6.9029 Y9.3930
G01 X16.5659 Y16.6713
G01 X23.8788 Y16.6713
G01 X23.9014 Y16.6463
G01 X23.9209 Y16.6269
G01 X23.9936 Y16.5610
G01 X24.0148 Y16.5435
G01 X24.0936 Y16.4851
G01 X24.1165 Y16.4698
G01 X24.2007 Y16.4194
G01 X24.2249 Y16.4064
G01 X24.3136 Y16.3644
G01 X24.3390 Y16.3539
G01 X24.4314 Y16.3209
G01 X24.4577 Y16.3129
G01 X24.5529 Y16.2890
G01 X24.5798 Y16.2837
G01 X24.6769 Y16.2693
G01 X24.7042 Y16.2666
G01 X24.8023 Y16.2618
G01 X24.8297 Y16.2618
G01 X24.9278 Y16.2666
G01 X24.9551 Y16.2693
G01 X25.0522 Y16.2837
G01 X25.0791 Y16.2890
G01 X25.1743 Y16.3129
G01 X25.2006 Y16.3209
G01 X25.2930 Y16.3539
G01 X25.3184 Y16.3644
G01 X25.4071 Y16.4064
G01 X25.4313 Y16.4194
G01 X25.5155 Y16.4698
G01 X25.5384 Y16.4851
G01 X25.6172 Y16.5435
G01 X25.6384 Y16.5610
G01 X25.7111 Y16.6269
G01 X25.7306 Y16.6463
G01 X25.7965 Y16.7190
G01 X25.8139 Y16.7403
G01 X25.8724 Y16.8191
G01 X25.8876 Y16.8419
G01 X25.9381 Y16.9261
G01 X25.9510 Y16.9503
G01 X25.9930 Y17.0390
G01 X26.0035 Y17.0644
G01 X26.0366 Y17.1568
G01 X26.0445 Y17.1831
G01 X26.0684 Y17.2783
G01 X26.0738 Y17.3053
G01 X26.0882 Y17.4023
G01 X26.0908 Y17.4297
G01 X26.0947 Y17.5081
G01 X26.0947 Y15.6556
G01 X24.1935 Y13.7545
G01 X24.1841 Y13.7445
G01 X24.1445 Y13.7009
G01 X24.1271 Y13.6796
G01 X24.0920 Y13.6323
G01 X24.0767 Y13.6095
G01 X24.0464 Y13.5589
G01 X24.0420 Y13.5506
G01 X24.0148 Y13.5305
G01 X23.9936 Y13.5130
G01 X23.9209 Y13.4471
G01 X23.9014 Y13.4277
G01 X23.8802 Y13.4043
G01 X19.3498 Y13.3773
G01 X19.3360 Y13.3769
G01 X19.2772 Y13.3736
G01 X19.2499 Y13.3708
G01 X19.1916 Y13.3618
G01 X19.1638 Y13.3560
G01 X19.1193 Y13.3650
G01 X19.0921 Y13.3691
G01 X19.0335 Y13.3751
G01 X19.0061 Y13.3765
G01 X18.9472 Y13.3767
G01 X18.9197 Y13.3754
G01 X18.8611 Y13.3698
G01 X18.8339 Y13.3658
G01 X18.7761 Y13.3545
G01 X18.7494 Y13.3479
G01 X18.6930 Y13.3310
G01 X18.6671 Y13.3218
G01 X18.6126 Y13.2994
G01 X18.5877 Y13.2878
G01 X18.5357 Y13.2601
G01 X18.5120 Y13.2461
G01 X18.4630 Y13.2135
G01 X18.4408 Y13.1972
G01 X18.3952 Y13.1600
G01 X18.3748 Y13.1416
G01 X18.3330 Y13.1000
G01 X18.3235 Y13.0901
G01 X11.0755 Y5.1407
G01 X11.0507 Y5.1407
G01 X10.9527 Y5.1358
G01 X10.9253 Y5.1332
G01 X10.8283 Y5.1188
G01 X10.8013 Y5.1134
G01 X10.7061 Y5.0895
G01 X10.6798 Y5.0816
G01 X10.5874 Y5.0485
G01 X10.5620 Y5.0380
G01 X10.4733 Y4.9960
G01 X10.4491 Y4.9831
G01 X10.3649 Y4.9326
G01 X10.3421 Y4.9174
G01 X10.2632 Y4.8589
G01 X10.2420 Y4.8415
G01 X10.1693 Y4.7756
G01 X10.1499 Y4.7561
G01 X10.0840 Y4.6834
G01 X10.0665 Y4.6622
G01 X10.0081 Y4.5834
G01 X9.9928 Y4.5605
G01 X9.9423 Y4.4763
G01 X9.9294 Y4.4521
G01 X9.8874 Y4.3634
G01 X9.8769 Y4.3380
G01 X9.8439 Y4.2456
G01 X9.8359 Y4.2193
G01 X9.8120 Y4.1241
G01 X9.8067 Y4.0972
G01 X9.7923 Y4.0001
G01 X9.7896 Y3.9728
G01 X9.7848 Y3.8747
G01 X9.7848 Y3.8473
G01 X9.7896 Y3.7492
G01 X9.7923 Y3.7219
G01 X9.8067 Y3.6248
G01 X9.8120 Y3.5979
G01 X9.8359 Y3.5027
G01 X9.8439 Y3.4764
G01 X9.8769 Y3.3840
G01 X9.8874 Y3.3586
G01 X9.9294 Y3.2699
G01 X9.9423 Y3.2457
G01 X9.9928 Y3.1615
G01 X10.0081 Y3.1386
G01 X10.0665 Y3.0598
G01 X10.0840 Y3.0386
G01 X10.1499 Y2.9659
G01 X10.1693 Y2.9464
G01 X10.2420 Y2.8805
G01 X10.2632 Y2.8631
G01 X10.3421 Y2.8046
G01 X10.3649 Y2.7894
G01 X10.4491 Y2.7389
G01 X10.4733 Y2.7260
G01 X10.5620 Y2.6840
G01 X10.5874 Y2.6735
G01 X10.6798 Y2.6404
G01 X10.7061 Y2.6325
G01 X10.8013 Y2.6086
G01 X10.8283 Y2.6032
G01 X10.9253 Y2.5888
G01 X10.9527 Y2.5862
G01 X11.0507 Y2.5813
G01 X11.0782 Y2.5813
G01 X11.1762 Y2.5862
G01 X11.2035 Y2.5888
G01 X11.3006 Y2.6032
G01 X11.3276 Y2.6086
G01 X11.4227 Y2.6325
G01 X11.4490 Y2.6404
G01 X11.5414 Y2.6735
G01 X11.5668 Y2.6840
G01 X11.6555 Y2.7260
G01 X11.6798 Y2.7389
G01 X11.7639 Y2.7894
G01 X11.7868 Y2.8046
G01 X11.8656 Y2.8631
G01 X11.8869 Y2.8805
G01 X11.9596 Y2.9464
G01 X11.9790 Y2.9659
G01 X12.0449 Y3.0386
G01 X12.0623 Y3.0598
G01 X12.1208 Y3.1386
G01 X12.1361 Y3.1615
G01 X12.1865 Y3.2457
G01 X12.1995 Y3.2699
G01 X12.2414 Y3.3586
G01 X12.2519 Y3.3840
G01 X12.2850 Y3.4764
G01 X12.2930 Y3.5027
G01 X12.3168 Y3.5979
G01 X12.3222 Y3.6248
G01 X12.3366 Y3.7219
G01 X12.3393 Y3.7492
G01 X12.3441 Y3.8473
G01 X12.3441 Y3.8747
G01 X12.3420 Y3.9167
G01 X15.6544 Y7.5496
G01 X20.0884 Y7.4351
G01 X23.8912 Y3.6323
G01 X23.8893 Y3.6191
G01 X23.8866 Y3.5918
G01 X23.8818 Y3.4937
G01 X23.8818 Y3.4663
G01 X23.8866 Y3.3682
G01 X23.8893 Y3.3409
G01 X23.9037 Y3.2438
G01 X23.9090 Y3.2169
G01 X23.9329 Y3.1217
G01 X23.9409 Y3.0954
G01 X23.9739 Y3.0030
G01 X23.9844 Y2.9776
G01 X24.0264 Y2.8889
G01 X24.0393 Y2.8647
G01 X24.0898 Y2.7805
G01 X24.1051 Y2.7576
G01 X24.1635 Y2.6788
G01 X24.1810 Y2.6576
G01 X24.2469 Y2.5849
G01 X24.2663 Y2.5654
G01 X24.3390 Y2.4995
G01 X24.3602 Y2.4821
G01 X24.4391 Y2.4236
G01 X24.4619 Y2.4084
G01 X24.5461 Y2.3579
G01 X24.5703 Y2.3450
G01 X24.6590 Y2.3030
G01 X24.6844 Y2.2925
G01 X24.7768 Y2.2594
G01 X24.8031 Y2.2515
G01 X24.8983 Y2.2276
G01 X24.9253 Y2.2222
G01 X25.0223 Y2.2078
G01 X25.0497 Y2.2052
G01 X25.1477 Y2.2003
G01 X25.1752 Y2.2003
G01 X25.2732 Y2.2052
G01 X25.3005 Y2.2078
G01 X25.3976 Y2.2222
G01 X25.4246 Y2.2276
G01 X25.5197 Y2.2515
G01 X25.5460 Y2.2594
G01 X25.6384 Y2.2925
G01 X25.6638 Y2.3030
G01 X25.7525 Y2.3450
G01 X25.7768 Y2.3579
G01 X25.8609 Y2.4084
G01 X25.8838 Y2.4236
G01 X25.9626 Y2.4821
G01 X25.9839 Y2.4995
G01 X26.0566 Y2.5654
G01 X26.0760 Y2.5849
G01 X26.1419 Y2.6576
G01 X26.1593 Y2.6788
G01 X26.2178 Y2.7576
G01 X26.2331 Y2.7805
G01 X26.2835 Y2.8647
G01 X26.2965 Y2.8889
G01 X26.3384 Y2.9776
G01 X26.3489 Y3.0030
G01 X26.3820 Y3.0954
G01 X26.3900 Y3.1217
G01 X26.4138 Y3.2169
G01 X26.4192 Y3.2438
G01 X26.4336 Y3.3409
G01 X26.4363 Y3.3682
G01 X26.4411 Y3.4663
G01 X26.4411 Y3.4937
G01 X26.4363 Y3.5918
G01 X26.4336 Y3.6191
G01 X26.4192 Y3.7162
G01 X26.4138 Y3.7431
G01 X26.3900 Y3.8383
G01 X26.3820 Y3.8646
G01 X26.3489 Y3.9570
G01 X26.3384 Y3.9824
G01 X26.2965 Y4.0711
G01 X26.2835 Y4.0953
G01 X26.2331 Y4.1795
G01 X26.2178 Y4.2024
G01 X26.1593 Y4.2812
G01 X26.1419 Y4.3024
G01 X26.0760 Y4.3751
G01 X26.0566 Y4.3946
G01 X25.9839 Y4.4605
G01 X25.9626 Y4.4779
G01 X25.8838 Y4.5364
G01 X25.8609 Y4.5516
G01 X25.7768 Y4.6021
G01 X25.7525 Y4.6150
G01 X25.6638 Y4.6570
G01 X25.6384 Y4.6675
G01 X25.5460 Y4.7006
G01 X25.5197 Y4.7085
G01 X25.4246 Y4.7324
G01 X25.3976 Y4.7378
G01 X25.3005 Y4.7522
G01 X25.2732 Y4.7548
G01 X25.2578 Y4.7556
G01 X21.0849 Y8.9285
G01 X21.0753 Y8.9376
G01 X21.0331 Y8.9760
G01 X21.0126 Y8.9929
G01 X20.9670 Y9.0271
G01 X20.9450 Y9.0420
G01 X20.8964 Y9.0716
G01 X20.8731 Y9.0844
G01 X20.8219 Y9.1093
G01 X20.7974 Y9.1198
G01 X20.7441 Y9.1398
G01 X20.7188 Y9.1479
G01 X20.6638 Y9.1627
G01 X20.6378 Y9.1684
G01 X20.5816 Y9.1780
G01 X20.5553 Y9.1812
G01 X20.4984 Y9.1853
G01 X20.4852 Y9.1860
G01 X17.2232 Y9.2703
G01 X19.3627 Y11.6167
G01 X23.8957 Y11.6437
G01 X23.9014 Y11.6374
G01 X23.9209 Y11.6180
G01 X23.9936 Y11.5521
G01 X24.0148 Y11.5346
G01 X24.0936 Y11.4762
G01 X24.1165 Y11.4609
G01 X24.2007 Y11.4105
G01 X24.2249 Y11.3975
G01 X24.3136 Y11.3556
G01 X24.3390 Y11.3450
G01 X24.4314 Y11.3120
G01 X24.4577 Y11.3040
G01 X24.5529 Y11.2802
G01 X24.5798 Y11.2748
G01 X24.6769 Y11.2604
G01 X24.7042 Y11.2577
G01 X24.8023 Y11.2529
G01 X24.8297 Y11.2529
G01 X24.9278 Y11.2577
G01 X24.9551 Y11.2604
G01 X25.0522 Y11.2748
G01 X25.0791 Y11.2802
G01 X25.1743 Y11.3040
G01 X25.2006 Y11.3120
G01 X25.2930 Y11.3450
G01 X25.3184 Y11.3556
G01 X25.4071 Y11.3975
G01 X25.4313 Y11.4105
G01 X25.5155 Y11.4609
G01 X25.5384 Y11.4762
G01 X25.6172 Y11.5346
G01 X25.6384 Y11.5521
G01 X25.7111 Y11.6180
G01 X25.7306 Y11.6374
G01 X25.7965 Y11.7101
G01 X25.8139 Y11.7314
G01 X25.8724 Y11.8102
G01 X25.8876 Y11.8330
G01 X25.9182 Y11.8840
G01 X25.9403 Y11.9043
G01 X25.9596 Y11.9238
G01 X25.9989 Y11.9677
G01 X26.0162 Y11.9890
G01 X26.0510 Y12.0366
G01 X26.0661 Y12.0595
G01 X26.0961 Y12.1102
G01 X26.1089 Y12.1345
G01 X26.1338 Y12.1879
G01 X26.1442 Y12.2134
G01 X26.1637 Y12.2690
G01 X26.1715 Y12.2953
G01 X26.1855 Y12.3525
G01 X26.1907 Y12.3795
G01 X26.1990 Y12.4378
G01 X26.2015 Y12.4652
G01 X26.2040 Y12.5241
G01 X26.2039 Y12.5515
G01 X26.2006 Y12.6104
G01 X26.1978 Y12.6377
G01 X26.1888 Y12.6959
G01 X26.1833 Y12.7228
G01 X26.1686 Y12.7799
G01 X26.1605 Y12.8061
G01 X26.1403 Y12.8615
G01 X26.1296 Y12.8868
G01 X26.1041 Y12.9399
G01 X26.0910 Y12.9641
G01 X26.0604 Y13.0144
G01 X26.0450 Y13.0372
G01 X26.0112 Y13.0822
G01 X27.5975 Y14.6685
G01 X27.6069 Y14.6785
G01 X27.6465 Y14.7221
G01 X27.6639 Y14.7434
G01 X27.6990 Y14.7907
G01 X27.7143 Y14.8135
G01 X27.7446 Y14.8641
G01 X27.7575 Y14.8883
G01 X27.7827 Y14.9416
G01 X27.7932 Y14.9669
G01 X27.8131 Y15.0224
G01 X27.8211 Y15.0487
G01 X27.8354 Y15.1059
G01 X27.8407 Y15.1328
G01 X27.8494 Y15.1911
G01 X27.8521 Y15.2184
G01 X27.8550 Y15.2773
G01 X27.8553 Y15.2910
G01 X27.8553 Y22.6570
G01 X27.8550 Y22.6707
G01 X27.8521 Y22.7296
G01 X27.8494 Y22.7569
G01 X27.8407 Y22.8152
G01 X27.8354 Y22.8421
G01 X27.8211 Y22.8993
G01 X27.8131 Y22.9256
G01 X27.7932 Y22.9811
G01 X27.7827 Y23.0064
G01 X27.7575 Y23.0597
G01 X27.7446 Y23.0839
G01 X27.7143 Y23.1345
G01 X27.6990 Y23.1573
G01 X27.6639 Y23.2046
G01 X27.6465 Y23.2259
G01 X27.6069 Y23.2695
G01 X27.5975 Y23.2795
G01 X25.5867 Y25.2903
G01 X25.5877 Y25.3103
G01 X25.5877 Y25.3377
G01 X25.5828 Y25.4358
G01 X25.5802 Y25.4631
G01 X25.5658 Y25.5602
G01 X25.5604 Y25.5871
G01 X25.5365 Y25.6823
G01 X25.5286 Y25.7086
G01 X25.4955 Y25.8010
G01 X25.4850 Y25.8264
G01 X25.4430 Y25.9151
G01 X25.4301 Y25.9393
G01 X25.3796 Y26.0235
G01 X25.3644 Y26.0464
G01 X25.3059 Y26.1252
G01 X25.2885 Y26.1464
G01 X25.2226 Y26.2191
G01 X25.2031 Y26.2386
G01 X25.1304 Y26.3045
G01 X25.1092 Y26.3219
G01 X25.0304 Y26.3804
G01 X25.0075 Y26.3956
G01 X24.9233 Y26.4461
G01 X24.8991 Y26.4590
G01 X24.8104 Y26.5010
G01 X24.7850 Y26.5115
G01 X24.6926 Y26.5446
G01 X24.6663 Y26.5525
G01 X24.5711 Y26.5764
G01 X24.5442 Y26.5818
G01 X24.4471 Y26.5962
G01 X24.4198 Y26.5988
G01 X24.3217 Y26.6037
G01 X24.2943 Y26.6037
G01 X24.1962 Y26.5988
G01 X24.1689 Y26.5962
G01 X24.0718 Y26.5818
G01 X24.0449 Y26.5764
G01 X23.9497 Y26.5525
G01 X23.9234 Y26.5446
G01 X23.8310 Y26.5115
G01 X23.8056 Y26.5010
G01 X23.7169 Y26.4590
G01 X23.6927 Y26.4461
G01 X23.6085 Y26.3956
G01 X23.5856 Y26.3804
G01 X23.5068 Y26.3219
G01 X23.4856 Y26.3045
G01 X23.4129 Y26.2386
G01 X23.3934 Y26.2191
G01 X23.3275 Y26.1464
G01 X23.3101 Y26.1252
G01 X23.2516 Y26.0464
G01 X23.2364 Y26.0235
G01 X23.1859 Y25.9393
G01 X23.1730 Y25.9151
G01 X23.1310 Y25.8264
G01 X23.1205 Y25.8010
G01 X23.0874 Y25.7086
G01 X23.0795 Y25.6823
G01 X23.0556 Y25.5871
G01 X23.0502 Y25.5602
G01 X23.0358 Y25.4631
G01 X23.0332 Y25.4358
G01 X23.0283 Y25.3377
G01 X23.0283 Y25.3103
G01 X23.0332 Y25.2122
G01 X23.0358 Y25.1849
G01 X23.0502 Y25.0878
G01 X23.0556 Y25.0609
G01 X23.0795 Y24.9657
G01 X23.0874 Y24.9394
G01 X23.1205 Y24.8470
G01 X23.1310 Y24.8216
G01 X23.1730 Y24.7329
G01 X23.1859 Y24.7087
G01 X23.2364 Y24.6245
G01 X23.2516 Y24.6016
G01 X23.3101 Y24.5228
G01 X23.3275 Y24.5016
G01 X23.3934 Y24.4289
G01 X23.4129 Y24.4094
G01 X23.4856 Y24.3435
G01 X23.5068 Y24.3261
G01 X23.5856 Y24.2676
G01 X23.6085 Y24.2524
G01 X23.6927 Y24.2019
G01 X23.7169 Y24.1890
G01 X23.8056 Y24.1470
G01 X23.8310 Y24.1365
G01 X23.9234 Y24.1034
G01 X23.9497 Y24.0955
G01 X24.0449 Y24.0716
G01 X24.0718 Y24.0662
G01 X24.1689 Y24.0518
G01 X24.1962 Y24.0492
G01 X24.2943 Y24.0443
G01 X24.3217 Y24.0443
G01 X24.3417 Y24.0453
G01 X26.0947 Y22.2924
G01 X26.0947 Y17.5748
G01 X26.0908 Y17.6532
G01 X26.0882 Y17.6805
G01 X26.0738 Y17.7776
G01 X26.0684 Y17.8046
G01 X26.0445 Y17.8998
G01 X26.0366 Y17.9261
G01 X26.0035 Y18.0185
G01 X25.9930 Y18.0438
G01 X25.9510 Y18.1326
G01 X25.9381 Y18.1568
G01 X25.8876 Y18.2410
G01 X25.8724 Y18.2638
G01 X25.8139 Y18.3426
G01 X25.7965 Y18.3639
G01 X25.7306 Y18.4366
G01 X25.7111 Y18.4560
G01 X25.6384 Y18.5219
G01 X25.6172 Y18.5393
G01 X25.5384 Y18.5978
G01 X25.5155 Y18.6131
G01 X25.4313 Y18.6635
G01 X25.4071 Y18.6765
G01 X25.3184 Y18.7184
G01 X25.2930 Y18.7290
G01 X25.2006 Y18.7620
G01 X25.1743 Y18.7700
G01 X25.0791 Y18.7938
G01 X25.0522 Y18.7992
G01 X24.9551 Y18.8136
G01 X24.9278 Y18.8163
G01 X24.8297 Y18.8211
G01 X24.8023 Y18.8211
G01 X24.7042 Y18.8163
G01 X24.6769 Y18.8136
G01 X24.5798 Y18.7992
G01 X24.5529 Y18.7938
G01 X24.4577 Y18.7700
G01 X24.4314 Y18.7620
G01 X24.3390 Y18.7290
G01 X24.3136 Y18.7184
G01 X24.2249 Y18.6765
G01 X24.2007 Y18.6635
G01 X24.1165 Y18.6131
G01 X24.0936 Y18.5978
G01 X24.0148 Y18.5393
G01 X23.9936 Y18.5219
G01 X23.9209 Y18.4560
G01 X23.9014 Y18.4366
G01 X23.8972 Y18.4319
G01 X16.2714 Y18.4319
G01 X16.2032 Y18.4291
G01 X16.1775 Y18.4267
G01 X16.1227 Y18.4190
G01 X16.0973 Y18.4143
G01 X16.0435 Y18.4017
G01 X16.0186 Y18.3946
G01 X15.9661 Y18.3771
G01 X15.9421 Y18.3677
G01 X15.8914 Y18.3454
G01 X15.8683 Y18.3339
G01 X15.8199 Y18.3071
G01 X15.7980 Y18.2935
G01 X15.7418 Y18.2548
G01 X5.6947 Y10.6871
G01 X5.6507 Y10.6761
G01 X5.6244 Y10.6681
G01 X5.5689 Y10.6482
G01 X5.5436 Y10.6377
G01 X5.4903 Y10.6125
G01 X5.4661 Y10.5996
G01 X5.4155 Y10.5693
G01 X5.3927 Y10.5540
G01 X5.3454 Y10.5189
G01 X5.3241 Y10.5015
G01 X5.2805 Y10.4619
G01 X5.2705 Y10.4525
G01 X0.6985 Y5.8805
G01 X0.6891 Y5.8705
G01 X0.6495 Y5.8269
G01 X0.6321 Y5.8056
G01 X0.5970 Y5.7583
G01 X0.5817 Y5.7355
G01 X0.5514 Y5.6849
G01 X0.5385 Y5.6607
G01 X0.5133 Y5.6074
G01 X0.5028 Y5.5821
G01 X0.4829 Y5.5266
G01 X0.4749 Y5.5003
G01 X0.4606 Y5.4431
G01 X0.4553 Y5.4162
G01 X0.4466 Y5.3579
G01 X0.4439 Y5.3306
G01 X0.4410 Y5.2717
G01 X0.4407 Y5.2580
G01 X0.4407 Y2.4640
G01 X0.4410 Y2.4503
G01 X0.4439 Y2.3914
G01 X0.4466 Y2.3641
G01 X0.4553 Y2.3058
G01 X0.4606 Y2.2789
G01 X0.4749 Y2.2217
G01 X0.4829 Y2.1954
G01 X0.5028 Y2.1399
G01 X0.5133 Y2.1146
G01 X0.5385 Y2.0613
G01 X0.5514 Y2.0371
G01 X0.5817 Y1.9865
G01 X0.5970 Y1.9637
G01 X0.6321 Y1.9164
G01 X0.6495 Y1.8951
G01 X0.6891 Y1.8515
G01 X0.6985 Y1.8415
G01 X2.7305 Y-0.1905
G01 X2.7405 Y-0.1999
G01 X2.7841 Y-0.2395
G01 X2.8054 Y-0.2569
G01 X2.8527 Y-0.2920
G01 X2.8755 Y-0.3073
G01 X2.9261 Y-0.3376
G01 X2.9503 Y-0.3505
G01 X3.0036 Y-0.3757
G01 X3.0289 Y-0.3862
G01 X3.0844 Y-0.4061
G01 X3.1107 Y-0.4141
G01 X3.1679 Y-0.4284
G01 X3.1948 Y-0.4337
G01 X3.2531 Y-0.4424
G01 X3.2804 Y-0.4451
G01 X3.3393 Y-0.4480
G01 X3.3530 Y-0.4483
G01 X17.1046 Y-0.4483
G01 X17.1183 Y-0.4480
G01 X17.1771 Y-0.4451
G01 X17.2045 Y-0.4424
G01 X17.2628 Y-0.4337
G01 X17.2897 Y-0.4284
G01 X17.3469 Y-0.4141
G01 X17.3731 Y-0.4061
G01 X17.4286 Y-0.3862
G01 X17.4540 Y-0.3757
G01 X17.5073 Y-0.3505
G01 X17.5315 Y-0.3376
G01 X17.5820 Y-0.3073
G01 X17.6049 Y-0.2920
G01 X17.6522 Y-0.2569
G01 X17.6734 Y-0.2395
G01 X17.7171 Y-0.1999
G01 X17.7270 Y-0.1905
G01 X20.1188 Y2.2013
G01 X20.1388 Y2.2003
G01 X20.1663 Y2.2003
G01 X20.2643 Y2.2052
G01 X20.2917 Y2.2078
G01 X20.3887 Y2.2222
G01 X20.4157 Y2.2276
G01 X20.5109 Y2.2515
G01 X20.5372 Y2.2594
G01 X20.6296 Y2.2925
G01 X20.6550 Y2.3030
G01 X20.7437 Y2.3450
G01 X20.7679 Y2.3579
G01 X20.8521 Y2.4084
G01 X20.8749 Y2.4236
G01 X20.9537 Y2.4821
G01 X20.9750 Y2.4995
G01 X21.0477 Y2.5654
G01 X21.0671 Y2.5849
G01 X21.1330 Y2.6576
G01 X21.1505 Y2.6788
G01 X21.2089 Y2.7576
G01 X21.2242 Y2.7805
G01 X21.2746 Y2.8647
G01 X21.2876 Y2.8889
G01 X21.3296 Y2.9776
G01 X21.3401 Y3.0030
G01 X21.3731 Y3.0954
G01 X21.3811 Y3.1217
G01 X21.4050 Y3.2169
G01 X21.4103 Y3.2438
G01 X21.4247 Y3.3409
G01 X21.4274 Y3.3682
G01 X21.4322 Y3.4663
G01 X21.4322 Y3.4937
G01 X21.4274 Y3.5918
G01 X21.4247 Y3.6191
G01 X21.4103 Y3.7162
G01 X21.4050 Y3.7431
G01 X21.3811 Y3.8383
G01 X21.3731 Y3.8646
G01 X21.3401 Y3.9570
G01 X21.3296 Y3.9824
G01 X21.2876 Y4.0711
G01 X21.2746 Y4.0953
G01 X21.2242 Y4.1795
G01 X21.2089 Y4.2024
G01 X21.1505 Y4.2812
G01 X21.1330 Y4.3024
G01 X21.0671 Y4.3751
G01 X21.0477 Y4.3946
G01 X20.9750 Y4.4605
G01 X20.9537 Y4.4779
G01 X20.8749 Y4.5364
G01 X20.8521 Y4.5516
G01 X20.7679 Y4.6021
G01 X20.7437 Y4.6150
G01 X20.6550 Y4.6570
G01 X20.6296 Y4.6675
G01 X20.5372 Y4.7006
G01 X20.5109 Y4.7085
G01 X20.4157 Y4.7324
G01 X20.3887 Y4.7378
G01 X20.2917 Y4.7522
G01 X20.2643 Y4.7548
G01 X20.1663 Y4.7597
G01 X20.1388 Y4.7597
G01 X20.0408 Y4.7548
G01 X20.0135 Y4.7522
G01 X19.9164 Y4.7378
G01 X19.8894 Y4.7324
G01 X19.7942 Y4.7085
G01 X19.7679 Y4.7006
G01 X19.6755 Y4.6675
G01 X19.6502 Y4.6570
G01 X19.5614 Y4.6150
G01 X19.5372 Y4.6021
G01 X19.4530 Y4.5516
G01 X19.4302 Y4.5364
G01 X19.3514 Y4.4779
G01 X19.3301 Y4.4605
G01 X19.2574 Y4.3946
G01 X19.2380 Y4.3751
G01 X19.1721 Y4.3024
G01 X19.1547 Y4.2812
G01 X19.0962 Y4.2024
G01 X19.0809 Y4.1795
G01 X19.0305 Y4.0953
G01 X19.0175 Y4.0711
G01 X18.9756 Y3.9824
G01 X18.9650 Y3.9570
G01 X18.9320 Y3.8646
G01 X18.9240 Y3.8383
G01 X18.9002 Y3.7431
G01 X18.8948 Y3.7162
G01 X18.8804 Y3.6191
G01 X18.8777 Y3.5918
G01 X18.8729 Y3.4937
G01 X18.8729 Y3.4663
G01 X18.8739 Y3.4463
G01 X16.7399 Y1.3123
G01 X3.7176 Y1.3123
G01 X2.2013 Y2.8286
G01 X2.2013 Y4.8934
G01 X5.1515 Y7.8436
G00 Z2.0000
G00 X5.3289 Y8.2756
G01 F60.00
G01 Z-0.0900
G01 F120.00
G01 X5.3502 Y4.7047
G01 X5.2813 Y4.6422
G01 X5.2744 Y4.6353
G01 X5.2085 Y4.5625
G01 X5.2022 Y4.5550
G01 X5.1438 Y4.4761
G01 X5.1383 Y4.4680
G01 X5.0879 Y4.3838
G01 X5.0832 Y4.3752
G01 X5.0413 Y4.2864
G01 X5.0375 Y4.2774
G01 X5.0045 Y4.1850
G01 X5.0016 Y4.1756
G01 X4.9778 Y4.0804
G01 X4.9759 Y4.0708
G01 X4.9615 Y3.9737
G01 X4.9605 Y3.9639
G01 X4.9557 Y3.8659
G01 X4.9557 Y3.8561
G01 X4.9605 Y3.7581
G01 X4.9615 Y3.7483
G01 X4.9759 Y3.6512
G01 X4.9778 Y3.6416
G01 X5.0016 Y3.5464
G01 X5.0045 Y3.5370
G01 X5.0375 Y3.4446
G01 X5.0413 Y3.4356
G01 X5.0832 Y3.3468
G01 X5.0879 Y3.3382
G01 X5.1383 Y3.2540
G01 X5.1438 Y3.2459
G01 X5.2022 Y3.1670
G01 X5.2085 Y3.1595
G01 X5.2744 Y3.0867
G01 X5.2813 Y3.0798
G01 X5.3540 Y3.0139
G01 X5.3616 Y3.0077
G01 X5.4404 Y2.9492
G01 X5.4486 Y2.9438
G01 X5.5328 Y2.8933
G01 X5.5414 Y2.8887
G01 X5.6301 Y2.8467
G01 X5.6392 Y2.8430
G01 X5.7316 Y2.8099
G01 X5.7410 Y2.8071
G01 X5.8362 Y2.7832
G01 X5.8458 Y2.7813
G01 X5.9429 Y2.7669
G01 X5.9526 Y2.7659
G01 X6.0507 Y2.7611
G01 X6.0605 Y2.7611
G01 X6.1585 Y2.7659
G01 X6.1683 Y2.7669
G01 X6.2653 Y2.7813
G01 X6.2749 Y2.7832
G01 X6.3701 Y2.8071
G01 X6.3795 Y2.8099
G01 X6.4719 Y2.8430
G01 X6.4810 Y2.8467
G01 X6.5697 Y2.8887
G01 X6.5784 Y2.8933
G01 X6.6625 Y2.9438
G01 X6.6707 Y2.9492
G01 X6.7495 Y3.0077
G01 X6.7571 Y3.0139
G01 X6.8298 Y3.0798
G01 X6.8368 Y3.0867
G01 X6.9027 Y3.1595
G01 X6.9089 Y3.1670
G01 X6.9674 Y3.2459
G01 X6.9728 Y3.2540
G01 X7.0233 Y3.3382
G01 X7.0279 Y3.3468
G01 X7.0698 Y3.4356
G01 X7.0736 Y3.4446
G01 X7.1067 Y3.5370
G01 X7.1095 Y3.5464
G01 X7.1333 Y3.6416
G01 X7.1353 Y3.6512
G01 X7.1497 Y3.7483
G01 X7.1506 Y3.7581
G01 X7.1554 Y3.8561
G01 X7.1554 Y3.8659
G01 X7.1506 Y3.9639
G01 X7.1497 Y3.9737
G01 X7.1353 Y4.0708
G01 X7.1333 Y4.0804
G01 X7.1095 Y4.1756
G01 X7.1067 Y4.1850
G01 X7.0736 Y4.2774
G01 X7.0698 Y4.2864
G01 X7.0279 Y4.3752
G01 X7.0233 Y4.3838
G01 X6.9728 Y4.4680
G01 X6.9674 Y4.4761
G01 X6.9089 Y4.5550
G01 X6.9027 Y4.5625
G01 X6.8368 Y4.6353
G01 X6.8298 Y4.6422
G01 X6.7571 Y4.7081
G01 X6.7508 Y4.7133
G01 X6.7224 Y9.4823
G01 X16.5056 Y16.8513
G01 X23.9598 Y16.8513
G01 X23.9689 Y16.8399
G01 X24.0348 Y16.7672
G01 X24.0417 Y16.7602
G01 X24.1145 Y16.6943
G01 X24.1220 Y16.6881
G01 X24.2009 Y16.6296
G01 X24.2090 Y16.6242
G01 X24.2932 Y16.5737
G01 X24.3018 Y16.5691
G01 X24.3906 Y16.5272
G01 X24.3996 Y16.5234
G01 X24.4920 Y16.4903
G01 X24.5014 Y16.4875
G01 X24.5966 Y16.4637
G01 X24.6062 Y16.4617
G01 X24.7033 Y16.4473
G01 X24.7131 Y16.4464
G01 X24.8111 Y16.4416
G01 X24.8209 Y16.4416
G01 X24.9189 Y16.4464
G01 X24.9287 Y16.4473
G01 X25.0258 Y16.4617
G01 X25.0354 Y16.4637
G01 X25.1306 Y16.4875
G01 X25.1400 Y16.4903
G01 X25.2324 Y16.5234
G01 X25.2414 Y16.5272
G01 X25.3302 Y16.5691
G01 X25.3388 Y16.5737
G01 X25.4230 Y16.6242
G01 X25.4311 Y16.6296
G01 X25.5100 Y16.6881
G01 X25.5175 Y16.6943
G01 X25.5903 Y16.7602
G01 X25.5972 Y16.7672
G01 X25.6631 Y16.8399
G01 X25.6693 Y16.8475
G01 X25.7278 Y16.9263
G01 X25.7332 Y16.9345
G01 X25.7837 Y17.0186
G01 X25.7883 Y17.0273
G01 X25.8303 Y17.1160
G01 X25.8340 Y17.1251
G01 X25.8671 Y17.2175
G01 X25.8699 Y17.2269
G01 X25.8938 Y17.3221
G01 X25.8957 Y17.3317
G01 X25.9101 Y17.4287
G01 X25.9111 Y17.4385
G01 X25.9159 Y17.5365
G01 X25.9159 Y17.5463
G01 X25.9111 Y17.6444
G01 X25.9101 Y17.6541
G01 X25.8957 Y17.7512
G01 X25.8938 Y17.7608
G01 X25.8699 Y17.8560
G01 X25.8671 Y17.8654
G01 X25.8340 Y17.9578
G01 X25.8303 Y17.9669
G01 X25.7883 Y18.0556
G01 X25.7837 Y18.0642
G01 X25.7332 Y18.1484
G01 X25.7278 Y18.1566
G01 X25.6693 Y18.2354
G01 X25.6631 Y18.2430
G01 X25.5972 Y18.3157
G01 X25.5903 Y18.3226
G01 X25.5175 Y18.3885
G01 X25.5100 Y18.3948
G01 X25.4311 Y18.4532
G01 X25.4230 Y18.4587
G01 X25.3388 Y18.5091
G01 X25.3302 Y18.5138
G01 X25.2414 Y18.5557
G01 X25.2324 Y18.5595
G01 X25.1400 Y18.5925
G01 X25.1306 Y18.5954
G01 X25.0354 Y18.6192
G01 X25.0258 Y18.6211
G01 X24.9287 Y18.6355
G01 X24.9189 Y18.6365
G01 X24.8209 Y18.6413
G01 X24.8111 Y18.6413
G01 X24.7131 Y18.6365
G01 X24.7033 Y18.6355
G01 X24.6062 Y18.6211
G01 X24.5966 Y18.6192
G01 X24.5014 Y18.5954
G01 X24.4920 Y18.5925
G01 X24.3996 Y18.5595
G01 X24.3906 Y18.5557
G01 X24.3018 Y18.5138
G01 X24.2932 Y18.5091
G01 X24.2090 Y18.4587
G01 X24.2009 Y18.4532
G01 X24.1220 Y18.3948
G01 X24.1145 Y18.3885
G01 X24.0417 Y18.3226
G01 X24.0348 Y18.3157
G01 X23.9770 Y18.2519
G01 X16.2714 Y18.2519
G01 X16.2115 Y18.2492
G01 X16.2023 Y18.2484
G01 X16.1475 Y18.2408
G01 X16.1385 Y18.2391
G01 X16.0846 Y18.2264
G01 X16.0757 Y18.2239
G01 X16.0232 Y18.2064
G01 X16.0146 Y18.2030
G01 X15.9640 Y18.1807
G01 X15.9557 Y18.1766
G01 X15.9074 Y18.1497
G01 X15.8995 Y18.1449
G01 X15.8501 Y18.1110
G01 X5.7709 Y10.5191
G01 X5.7516 Y10.5158
G01 X5.6944 Y10.5015
G01 X5.6851 Y10.4986
G01 X5.6296 Y10.4788
G01 X5.6205 Y10.4750
G01 X5.5673 Y10.4498
G01 X5.5586 Y10.4452
G01 X5.5081 Y10.4149
G01 X5.4999 Y10.4095
G01 X5.4526 Y10.3744
G01 X5.4450 Y10.3681
G01 X5.3978 Y10.3252
G01 X0.8258 Y5.7532
G01 X0.7829 Y5.7060
G01 X0.7766 Y5.6984
G01 X0.7415 Y5.6511
G01 X0.7361 Y5.6429
G01 X0.7058 Y5.5924
G01 X0.7012 Y5.5837
G01 X0.6760 Y5.5305
G01 X0.6722 Y5.5214
G01 X0.6524 Y5.4659
G01 X0.6495 Y5.4566
G01 X0.6352 Y5.3994
G01 X0.6333 Y5.3898
G01 X0.6247 Y5.3315
G01 X0.6237 Y5.3217
G01 X0.6207 Y5.2580
G01 X0.6207 Y2.4640
G01 X0.6237 Y2.4003
G01 X0.6247 Y2.3905
G01 X0.6333 Y2.3322
G01 X0.6352 Y2.3226
G01 X0.6495 Y2.2654
G01 X0.6524 Y2.2561
G01 X0.6722 Y2.2006
G01 X0.6760 Y2.1915
G01 X0.7012 Y2.1383
G01 X0.7058 Y2.1296
G01 X0.7361 Y2.0791
G01 X0.7415 Y2.0709
G01 X0.7766 Y2.0236
G01 X0.7829 Y2.0160
G01 X0.8258 Y1.9688
G01 X2.8578 Y-0.0632
G01 X2.9050 Y-0.1061
G01 X2.9126 Y-0.1124
G01 X2.9599 Y-0.1475
G01 X2.9681 Y-0.1529
G01 X3.0186 Y-0.1832
G01 X3.0273 Y-0.1878
G01 X3.0805 Y-0.2130
G01 X3.0896 Y-0.2168
G01 X3.1451 Y-0.2366
G01 X3.1544 Y-0.2395
G01 X3.2116 Y-0.2538
G01 X3.2212 Y-0.2557
G01 X3.2795 Y-0.2643
G01 X3.2893 Y-0.2653
G01 X3.3530 Y-0.2683
G01 X17.1046 Y-0.2683
G01 X17.1683 Y-0.2653
G01 X17.1781 Y-0.2643
G01 X17.2363 Y-0.2557
G01 X17.2460 Y-0.2538
G01 X17.3031 Y-0.2395
G01 X17.3125 Y-0.2366
G01 X17.3680 Y-0.2168
G01 X17.3770 Y-0.2130
G01 X17.4303 Y-0.1878
G01 X17.4389 Y-0.1832
G01 X17.4895 Y-0.1529
G01 X17.4976 Y-0.1475
G01 X17.5450 Y-0.1124
G01 X17.5525 Y-0.1061
G01 X17.5997 Y-0.0632
G01 X20.0480 Y2.3851
G01 X20.1477 Y2.3801
G01 X20.1575 Y2.3801
G01 X20.2555 Y2.3849
G01 X20.2653 Y2.3859
G01 X20.3623 Y2.4003
G01 X20.3719 Y2.4022
G01 X20.4671 Y2.4261
G01 X20.4765 Y2.4289
G01 X20.5689 Y2.4620
G01 X20.5780 Y2.4657
G01 X20.6667 Y2.5077
G01 X20.6754 Y2.5123
G01 X20.7595 Y2.5628
G01 X20.7677 Y2.5682
G01 X20.8465 Y2.6267
G01 X20.8541 Y2.6329
G01 X20.9268 Y2.6988
G01 X20.9338 Y2.7057
G01 X20.9997 Y2.7785
G01 X21.0059 Y2.7860
G01 X21.0644 Y2.8649
G01 X21.0698 Y2.8730
G01 X21.1203 Y2.9572
G01 X21.1249 Y2.9658
G01 X21.1668 Y3.0546
G01 X21.1706 Y3.0636
G01 X21.2037 Y3.1560
G01 X21.2065 Y3.1654
G01 X21.2303 Y3.2606
G01 X21.2323 Y3.2702
G01 X21.2467 Y3.3673
G01 X21.2476 Y3.3771
G01 X21.2524 Y3.4751
G01 X21.2524 Y3.4849
G01 X21.2476 Y3.5829
G01 X21.2467 Y3.5927
G01 X21.2323 Y3.6898
G01 X21.2303 Y3.6994
G01 X21.2065 Y3.7946
G01 X21.2037 Y3.8040
G01 X21.1706 Y3.8964
G01 X21.1668 Y3.9054
G01 X21.1249 Y3.9942
G01 X21.1203 Y4.0028
G01 X21.0698 Y4.0870
G01 X21.0644 Y4.0951
G01 X21.0059 Y4.1740
G01 X20.9997 Y4.1815
G01 X20.9338 Y4.2543
G01 X20.9268 Y4.2612
G01 X20.8541 Y4.3271
G01 X20.8465 Y4.3333
G01 X20.7677 Y4.3918
G01 X20.7595 Y4.3972
G01 X20.6754 Y4.4477
G01 X20.6667 Y4.4523
G01 X20.5780 Y4.4943
G01 X20.5689 Y4.4980
G01 X20.4765 Y4.5311
G01 X20.4671 Y4.5339
G01 X20.3719 Y4.5578
G01 X20.3623 Y4.5597
G01 X20.2653 Y4.5741
G01 X20.2555 Y4.5751
G01 X20.1575 Y4.5799
G01 X20.1477 Y4.5799
G01 X20.0496 Y4.5751
G01 X20.0399 Y4.5741
G01 X19.9428 Y4.5597
G01 X19.9332 Y4.5578
G01 X19.8380 Y4.5339
G01 X19.8286 Y4.5311
G01 X19.7362 Y4.4980
G01 X19.7271 Y4.4943
G01 X19.6384 Y4.4523
G01 X19.6298 Y4.4477
G01 X19.5456 Y4.3972
G01 X19.5374 Y4.3918
G01 X19.4586 Y4.3333
G01 X19.4510 Y4.3271
G01 X19.3783 Y4.2612
G01 X19.3714 Y4.2543
G01 X19.3055 Y4.1815
G01 X19.2992 Y4.1740
G01 X19.2408 Y4.0951
G01 X19.2353 Y4.0870
G01 X19.1849 Y4.0028
G01 X19.1802 Y3.9942
G01 X19.1383 Y3.9054
G01 X19.1345 Y3.8964
G01 X19.1015 Y3.8040
G01 X19.0986 Y3.7946
G01 X19.0748 Y3.6994
G01 X19.0729 Y3.6898
G01 X19.0585 Y3.5927
G01 X19.0575 Y3.5829
G01 X19.0527 Y3.4849
G01 X19.0527 Y3.4751
G01 X19.0577 Y3.3755
G01 X16.8145 Y1.1323
G01 X3.6431 Y1.1323
G01 X2.0213 Y2.7541
G01 X2.0213 Y4.9679
G01 X5.3289 Y8.2756
G00 Z2.0000
G00 X11.1515 Y4.9568
G01 F60.00
G01 Z-0.0900
G01 F120.00
G01 X11.0693 Y4.9609
G01 X11.0595 Y4.9609
G01 X10.9615 Y4.9561
G01 X10.9517 Y4.9551
G01 X10.8547 Y4.9407
G01 X10.8450 Y4.9388
G01 X10.7498 Y4.9149
G01 X10.7405 Y4.9121
G01 X10.6481 Y4.8790
G01 X10.6390 Y4.8753
G01 X10.5503 Y4.8333
G01 X10.5416 Y4.8287
G01 X10.4574 Y4.7782
G01 X10.4493 Y4.7728
G01 X10.3705 Y4.7143
G01 X10.3629 Y4.7081
G01 X10.2902 Y4.6422
G01 X10.2832 Y4.6353
G01 X10.2173 Y4.5625
G01 X10.2111 Y4.5550
G01 X10.1526 Y4.4761
G01 X10.1472 Y4.4680
G01 X10.0967 Y4.3838
G01 X10.0921 Y4.3752
G01 X10.0502 Y4.2864
G01 X10.0464 Y4.2774
G01 X10.0133 Y4.1850
G01 X10.0105 Y4.1756
G01 X9.9866 Y4.0804
G01 X9.9847 Y4.0708
G01 X9.9703 Y3.9737
G01 X9.9694 Y3.9639
G01 X9.9646 Y3.8659
G01 X9.9646 Y3.8561
G01 X9.9694 Y3.7581
G01 X9.9703 Y3.7483
G01 X9.9847 Y3.6512
G01 X9.9866 Y3.6416
G01 X10.0105 Y3.5464
G01 X10.0133 Y3.5370
G01 X10.0464 Y3.4446
G01 X10.0502 Y3.4356
G01 X10.0921 Y3.3468
G01 X10.0967 Y3.3382
G01 X10.1472 Y3.2540
G01 X10.1526 Y3.2459
G01 X10.2111 Y3.1670
G01 X10.2173 Y3.1595
G01 X10.2832 Y3.0867
G01 X10.2902 Y3.0798
G01 X10.3629 Y3.0139
G01 X10.3705 Y3.0077
G01 X10.4493 Y2.9492
G01 X10.4574 Y2.9438
G01 X10.5416 Y2.8933
G01 X10.5503 Y2.8887
G01 X10.6390 Y2.8467
G01 X10.6481 Y2.8430
G01 X10.7405 Y2.8099
G01 X10.7498 Y2.8071
G01 X10.8450 Y2.7832
G01 X10.8547 Y2.7813
G01 X10.9517 Y2.7669
G01 X10.9615 Y2.7659
G01 X11.0595 Y2.7611
G01 X11.0693 Y2.7611
G01 X11.1674 Y2.7659
G01 X11.1771 Y2.7669
G01 X11.2742 Y2.7813
G01 X11.2838 Y2.7832
G01 X11.3790 Y2.8071
G01 X11.3884 Y2.8099
G01 X11.4808 Y2.8430
G01 X11.4899 Y2.8467
G01 X11.5786 Y2.8887
G01 X11.5872 Y2.8933
G01 X11.6714 Y2.9438
G01 X11.6796 Y2.9492
G01 X11.7584 Y3.0077
G01 X11.7660 Y3.0139
G01 X11.8387 Y3.0798
G01 X11.8456 Y3.0867
G01 X11.9115 Y3.1595
G01 X11.9178 Y3.1670
G01 X11.9762 Y3.2459
G01 X11.9817 Y3.2540
G01 X12.0321 Y3.3382
G01 X12.0368 Y3.3468
G01 X12.0787 Y3.4356
G01 X12.0825 Y3.4446
G01 X12.1155 Y3.5370
G01 X12.1184 Y3.5464
G01 X12.1422 Y3.6416
G01 X12.1441 Y3.6512
G01 X12.1585 Y3.7483
G01 X12.1595 Y3.7581
G01 X12.1643 Y3.8561
G01 X12.1643 Y3.8659
G01 X12.1595 Y3.9639
G01 X12.1574 Y3.9813
G01 X15.5768 Y7.7316
G01 X20.1649 Y7.6132
G01 X24.0828 Y3.6952
G01 X24.0817 Y3.6898
G01 X24.0673 Y3.5927
G01 X24.0664 Y3.5829
G01 X24.0616 Y3.4849
G01 X24.0616 Y3.4751
G01 X24.0664 Y3.3771
G01 X24.0673 Y3.3673
G01 X24.0817 Y3.2702
G01 X24.0836 Y3.2606
G01 X24.1075 Y3.1654
G01 X24.1103 Y3.1560
G01 X24.1434 Y3.0636
G01 X24.1472 Y3.0546
G01 X24.1891 Y2.9658
G01 X24.1937 Y2.9572
G01 X24.2442 Y2.8730
G01 X24.2496 Y2.8649
G01 X24.3081 Y2.7860
G01 X24.3143 Y2.7785
G01 X24.3802 Y2.7057
G01 X24.3872 Y2.6988
G01 X24.4599 Y2.6329
G01 X24.4675 Y2.6267
G01 X24.5463 Y2.5682
G01 X24.5544 Y2.5628
G01 X24.6386 Y2.5123
G01 X24.6473 Y2.5077
G01 X24.7360 Y2.4657
G01 X24.7451 Y2.4620
G01 X24.8375 Y2.4289
G01 X24.8468 Y2.4261
G01 X24.9420 Y2.4022
G01 X24.9517 Y2.4003
G01 X25.0487 Y2.3859
G01 X25.0585 Y2.3849
G01 X25.1565 Y2.3801
G01 X25.1663 Y2.3801
G01 X25.2644 Y2.3849
G01 X25.2741 Y2.3859
G01 X25.3712 Y2.4003
G01 X25.3808 Y2.4022
G01 X25.4760 Y2.4261
G01 X25.4854 Y2.4289
G01 X25.5778 Y2.4620
G01 X25.5869 Y2.4657
G01 X25.6756 Y2.5077
G01 X25.6842 Y2.5123
G01 X25.7684 Y2.5628
G01 X25.7766 Y2.5682
G01 X25.8554 Y2.6267
G01 X25.8630 Y2.6329
G01 X25.9357 Y2.6988
G01 X25.9426 Y2.7057
G01 X26.0085 Y2.7785
G01 X26.0148 Y2.7860
G01 X26.0732 Y2.8649
G01 X26.0787 Y2.8730
G01 X26.1291 Y2.9572
G01 X26.1338 Y2.9658
G01 X26.1757 Y3.0546
G01 X26.1795 Y3.0636
G01 X26.2125 Y3.1560
G01 X26.2154 Y3.1654
G01 X26.2392 Y3.2606
G01 X26.2411 Y3.2702
G01 X26.2555 Y3.3673
G01 X26.2565 Y3.3771
G01 X26.2613 Y3.4751
G01 X26.2613 Y3.4849
G01 X26.2565 Y3.5829
G01 X26.2555 Y3.5927
G01 X26.2411 Y3.6898
G01 X26.2392 Y3.6994
G01 X26.2154 Y3.7946
G01 X26.2125 Y3.8040
G01 X26.1795 Y3.8964
G01 X26.1757 Y3.9054
G01 X26.1338 Y3.9942
G01 X26.1291 Y4.0028
G01 X26.0787 Y4.0870
G01 X26.0732 Y4.0951
G01 X26.0148 Y4.1740
G01 X26.0085 Y4.1815
G01 X25.9426 Y4.2543
G01 X25.9357 Y4.2612
G01 X25.8630 Y4.3271
G01 X25.8554 Y4.3333
G01 X25.7766 Y4.3918
G01 X25.7684 Y4.3972
G01 X25.6842 Y4.4477
G01 X25.6756 Y4.4523
G01 X25.5869 Y4.4943
G01 X25.5778 Y4.4980
G01 X25.4854 Y4.5311
G01 X25.4760 Y4.5339
G01 X25.3808 Y4.5578
G01 X25.3712 Y4.5597
G01 X25.2741 Y4.5741
G01 X25.2644 Y4.5751
G01 X25.1796 Y4.5792
G01 X20.9576 Y8.8012
G01 X20.9120 Y8.8428
G01 X20.9047 Y8.8488
G01 X20.8591 Y8.8830
G01 X20.8513 Y8.8883
G01 X20.8026 Y8.9180
G01 X20.7943 Y8.9226
G01 X20.7431 Y8.9475
G01 X20.7343 Y8.9512
G01 X20.6810 Y8.9712
G01 X20.6720 Y8.9741
G01 X20.6169 Y8.9889
G01 X20.6077 Y8.9910
G01 X20.5515 Y9.0005
G01 X20.5421 Y9.0017
G01 X20.4853 Y9.0058
G01 X16.8249 Y9.1005
G01 X19.2864 Y11.8002
G01 X19.2954 Y11.7993
G01 X19.3592 Y11.7967
G01 X23.9751 Y11.8242
G01 X24.0348 Y11.7583
G01 X24.0417 Y11.7513
G01 X24.1145 Y11.6854
G01 X24.1220 Y11.6792
G01 X24.2009 Y11.6208
G01 X24.2090 Y11.6153
G01 X24.2932 Y11.5649
G01 X24.3018 Y11.5602
G01 X24.3906 Y11.5183
G01 X24.3996 Y11.5145
G01 X24.4920 Y11.4815
G01 X24.5014 Y11.4786
G01 X24.5966 Y11.4548
G01 X24.6062 Y11.4528
G01 X24.7033 Y11.4384
G01 X24.7131 Y11.4375
G01 X24.8111 Y11.4327
G01 X24.8209 Y11.4327
G01 X24.9189 Y11.4375
G01 X24.9287 Y11.4384
G01 X25.0258 Y11.4528
G01 X25.0354 Y11.4548
G01 X25.1306 Y11.4786
G01 X25.1400 Y11.4815
G01 X25.2324 Y11.5145
G01 X25.2414 Y11.5183
G01 X25.3302 Y11.5602
G01 X25.3388 Y11.5649
G01 X25.4230 Y11.6153
G01 X25.4311 Y11.6208
G01 X25.5100 Y11.6792
G01 X25.5175 Y11.6854
G01 X25.5903 Y11.7513
G01 X25.5972 Y11.7583
G01 X25.6631 Y11.8310
G01 X25.6693 Y11.8386
G01 X25.7278 Y11.9174
G01 X25.7332 Y11.9256
G01 X25.7773 Y11.9990
G01 X25.8186 Y12.0369
G01 X25.8255 Y12.0439
G01 X25.8648 Y12.0878
G01 X25.8710 Y12.0954
G01 X25.9058 Y12.1429
G01 X25.9112 Y12.1511
G01 X25.9412 Y12.2018
G01 X25.9457 Y12.2105
G01 X25.9706 Y12.2639
G01 X25.9743 Y12.2730
G01 X25.9938 Y12.3286
G01 X25.9966 Y12.3380
G01 X26.0106 Y12.3952
G01 X26.0125 Y12.4049
G01 X26.0208 Y12.4632
G01 X26.0217 Y12.4730
G01 X26.0242 Y12.5318
G01 X26.0241 Y12.5416
G01 X26.0209 Y12.6004
G01 X26.0199 Y12.6102
G01 X26.0109 Y12.6684
G01 X26.0089 Y12.6780
G01 X25.9943 Y12.7351
G01 X25.9914 Y12.7445
G01 X25.9712 Y12.7998
G01 X25.9674 Y12.8089
G01 X25.9419 Y12.8620
G01 X25.9372 Y12.8706
G01 X25.9066 Y12.9209
G01 X25.9011 Y12.9291
G01 X25.8657 Y12.9762
G01 X25.8595 Y12.9837
G01 X25.8196 Y13.0271
G01 X25.8127 Y13.0340
G01 X25.7777 Y13.0653
G01 X25.7635 Y13.0891
G01 X27.4702 Y14.7958
G01 X27.5131 Y14.8430
G01 X27.5194 Y14.8506
G01 X27.5545 Y14.8979
G01 X27.5599 Y14.9061
G01 X27.5902 Y14.9566
G01 X27.5948 Y14.9653
G01 X27.6200 Y15.0185
G01 X27.6238 Y15.0276
G01 X27.6436 Y15.0831
G01 X27.6465 Y15.0924
G01 X27.6608 Y15.1496
G01 X27.6627 Y15.1592
G01 X27.6713 Y15.2175
G01 X27.6723 Y15.2273
G01 X27.6753 Y15.2910
G01 X27.6753 Y22.6570
G01 X27.6723 Y22.7207
G01 X27.6713 Y22.7305
G01 X27.6627 Y22.7888
G01 X27.6608 Y22.7984
G01 X27.6465 Y22.8556
G01 X27.6436 Y22.8649
G01 X27.6238 Y22.9204
G01 X27.6200 Y22.9295
G01 X27.5948 Y22.9827
G01 X27.5902 Y22.9914
G01 X27.5599 Y23.0419
G01 X27.5545 Y23.0501
G01 X27.5194 Y23.0974
G01 X27.5131 Y23.1050
G01 X27.4736 Y23.1486
G01 X25.4029 Y25.2195
G01 X25.4079 Y25.3191
G01 X25.4079 Y25.3289
G01 X25.4031 Y25.4269
G01 X25.4021 Y25.4367
G01 X25.3877 Y25.5338
G01 X25.3858 Y25.5434
G01 X25.3619 Y25.6386
G01 X25.3591 Y25.6480
G01 X25.3260 Y25.7404
G01 X25.3223 Y25.7494
G01 X25.2803 Y25.8382
G01 X25.2757 Y25.8468
G01 X25.2252 Y25.9310
G01 X25.2198 Y25.9391
G01 X25.1613 Y26.0180
G01 X25.1551 Y26.0255
G01 X25.0892 Y26.0983
G01 X25.0823 Y26.1052
G01 X25.0095 Y26.1711
G01 X25.0020 Y26.1773
G01 X24.9231 Y26.2358
G01 X24.9150 Y26.2412
G01 X24.8308 Y26.2917
G01 X24.8222 Y26.2963
G01 X24.7334 Y26.3383
G01 X24.7244 Y26.3420
G01 X24.6320 Y26.3751
G01 X24.6226 Y26.3779
G01 X24.5274 Y26.4018
G01 X24.5178 Y26.4037
G01 X24.4207 Y26.4181
G01 X24.4109 Y26.4191
G01 X24.3129 Y26.4239
G01 X24.3031 Y26.4239
G01 X24.2051 Y26.4191
G01 X24.1953 Y26.4181
G01 X24.0982 Y26.4037
G01 X24.0886 Y26.4018
G01 X23.9934 Y26.3779
G01 X23.9840 Y26.3751
G01 X23.8916 Y26.3420
G01 X23.8826 Y26.3383
G01 X23.7938 Y26.2963
G01 X23.7852 Y26.2917
G01 X23.7010 Y26.2412
G01 X23.6929 Y26.2358
G01 X23.6140 Y26.1773
G01 X23.6065 Y26.1711
G01 X23.5337 Y26.1052
G01 X23.5268 Y26.0983
G01 X23.4609 Y26.0255
G01 X23.4547 Y26.0180
G01 X23.3962 Y25.9391
G01 X23.3908 Y25.9310
G01 X23.3403 Y25.8468
G01 X23.3357 Y25.8382
G01 X23.2937 Y25.7494
G01 X23.2900 Y25.7404
G01 X23.2569 Y25.6480
G01 X23.2541 Y25.6386
G01 X23.2302 Y25.5434
G01 X23.2283 Y25.5338
G01 X23.2139 Y25.4367
G01 X23.2129 Y25.4269
G01 X23.2081 Y25.3289
G01 X23.2081 Y25.3191
G01 X23.2129 Y25.2211
G01 X23.2139 Y25.2113
G01 X23.2283 Y25.1142
G01 X23.2302 Y25.1046
G01 X23.2541 Y25.0094
G01 X23.2569 Y25.0000
G01 X23.2900 Y24.9076
G01 X23.2937 Y24.8986
G01 X23.3357 Y24.8098
G01 X23.3403 Y24.8012
G01 X23.3908 Y24.7170
G01 X23.3962 Y24.7089
G01 X23.4547 Y24.6300
G01 X23.4609 Y24.6225
G01 X23.5268 Y24.5497
G01 X23.5337 Y24.5428
G01 X23.6065 Y24.4769
G01 X23.6140 Y24.4707
G01 X23.6929 Y24.4122
G01 X23.7010 Y24.4068
G01 X23.7852 Y24.3563
G01 X23.7938 Y24.3517
G01 X23.8826 Y24.3097
G01 X23.8916 Y24.3060
G01 X23.9840 Y24.2729
G01 X23.9934 Y24.2701
G01 X24.0886 Y24.2462
G01 X24.0982 Y24.2443
G01 X24.1953 Y24.2299
G01 X24.2051 Y24.2289
G01 X24.3031 Y24.2241
G01 X24.3129 Y24.2241
G01 X24.4125 Y24.2291
G01 X26.2747 Y22.3669
G01 X26.2747 Y15.5811
G01 X24.3208 Y13.6272
G01 X24.2779 Y13.5800
G01 X24.2716 Y13.5724
G01 X24.2365 Y13.5251
G01 X24.2311 Y13.5169
G01 X24.2008 Y13.4664
G01 X24.1962 Y13.4577
G01 X24.1839 Y13.4318
G01 X24.1220 Y13.3859
G01 X24.1145 Y13.3797
G01 X24.0417 Y13.3138
G01 X24.0348 Y13.3068
G01 X23.9689 Y13.2341
G01 X23.9614 Y13.2247
G01 X19.3508 Y13.1973
G01 X19.2871 Y13.1939
G01 X19.2773 Y13.1929
G01 X19.2191 Y13.1839
G01 X19.2095 Y13.1819
G01 X19.1644 Y13.1703
G01 X19.1509 Y13.1745
G01 X19.1414 Y13.1769
G01 X19.0836 Y13.1886
G01 X19.0739 Y13.1900
G01 X19.0153 Y13.1960
G01 X19.0055 Y13.1965
G01 X18.9466 Y13.1967
G01 X18.9368 Y13.1962
G01 X18.8782 Y13.1906
G01 X18.8685 Y13.1892
G01 X18.8106 Y13.1779
G01 X18.8011 Y13.1755
G01 X18.7447 Y13.1586
G01 X18.7354 Y13.1553
G01 X18.6810 Y13.1329
G01 X18.6721 Y13.1288
G01 X18.6200 Y13.1011
G01 X18.6116 Y13.0961
G01 X18.5625 Y13.0635
G01 X18.5546 Y13.0577
G01 X18.5090 Y13.0205
G01 X18.5017 Y13.0139
G01 X18.4565 Y12.9688
G01 X11.1515 Y4.9568
G00 Z2.0000
G00 X4.7091 Y18.5631
G01 F60.00
G01 Z-0.0900
G01 F120.00
G01 X4.6294 Y18.5592
G01 X4.5845 Y18.5548
G01 X4.4874 Y18.5404
G01 X4.4431 Y18.5315
G01 X4.3479 Y18.5077
G01 X4.3047 Y18.4946
G01 X4.2123 Y18.4615
G01 X4.1706 Y18.4443
G01 X4.0819 Y18.4023
G01 X4.0421 Y18.3810
G01 X3.9579 Y18.3306
G01 X3.9204 Y18.3055
G01 X3.8416 Y18.2470
G01 X3.8067 Y18.2184
G01 X3.7340 Y18.1525
G01 X3.7021 Y18.1206
G01 X3.6362 Y18.0479
G01 X3.6075 Y18.0130
G01 X3.5491 Y17.9341
G01 X3.5240 Y17.8966
G01 X3.4735 Y17.8124
G01 X3.4522 Y17.7726
G01 X3.4103 Y17.6839
G01 X3.3930 Y17.6422
G01 X3.3599 Y17.5498
G01 X3.3468 Y17.5066
G01 X3.3230 Y17.4114
G01 X3.3142 Y17.3671
G01 X3.2998 Y17.2701
G01 X3.2954 Y17.2251
G01 X3.2906 Y17.1271
G01 X3.2906 Y17.0820
G01 X3.2954 Y16.9840
G01 X3.2998 Y16.9390
G01 X3.3142 Y16.8420
G01 X3.3230 Y16.7977
G01 X3.3468 Y16.7025
G01 X3.3599 Y16.6593
G01 X3.3930 Y16.5669
G01 X3.4103 Y16.5252
G01 X3.4522 Y16.4365
G01 X3.4735 Y16.3967
G01 X3.5240 Y16.3125
G01 X3.5491 Y16.2750
G01 X3.6075 Y16.1961
G01 X3.6362 Y16.1612
G01 X3.7021 Y16.0885
G01 X3.7340 Y16.0566
G01 X3.8067 Y15.9907
G01 X3.8416 Y15.9621
G01 X3.9204 Y15.9036
G01 X3.9579 Y15.8785
G01 X4.0421 Y15.8281
G01 X4.0819 Y15.8068
G01 X4.1706 Y15.7648
G01 X4.2123 Y15.7476
G01 X4.3047 Y15.7145
G01 X4.3479 Y15.7014
G01 X4.4431 Y15.6776
G01 X4.4874 Y15.6687
G01 X4.5845 Y15.6543
G01 X4.6294 Y15.6499
G01 X4.7274 Y15.6451
G01 X4.7726 Y15.6451
G01 X4.8706 Y15.6499
G01 X4.9155 Y15.6543
G01 X5.0126 Y15.6687
G01 X5.0569 Y15.6776
G01 X5.1521 Y15.7014
G01 X5.1953 Y15.7145
G01 X5.2877 Y15.7476
G01 X5.3294 Y15.7648
G01 X5.4181 Y15.8068
G01 X5.4579 Y15.8281
G01 X5.5421 Y15.8785
G01 X5.5796 Y15.9036
G01 X5.6584 Y15.9621
G01 X5.6933 Y15.9907
G01 X5.7660 Y16.0566
G01 X5.7979 Y16.0885
G01 X5.8638 Y16.1612
G01 X5.8925 Y16.1961
G01 X5.9509 Y16.2750
G01 X5.9760 Y16.3125
G01 X6.0265 Y16.3967
G01 X6.0478 Y16.4365
G01 X6.0897 Y16.5252
G01 X6.1070 Y16.5669
G01 X6.1401 Y16.6593
G01 X6.1532 Y16.7025
G01 X6.1770 Y16.7977
G01 X6.1858 Y16.8420
G01 X6.2002 Y16.9390
G01 X6.2046 Y16.9840
G01 X6.2085 Y17.0636
G01 X18.4886 Y29.3437
G01 X23.3056 Y29.3437
G01 X23.3647 Y29.2902
G01 X23.3996 Y29.2615
G01 X23.4784 Y29.2031
G01 X23.5159 Y29.1780
G01 X23.6001 Y29.1275
G01 X23.6399 Y29.1062
G01 X23.7286 Y29.0643
G01 X23.7703 Y29.0470
G01 X23.8627 Y29.0139
G01 X23.9059 Y29.0008
G01 X24.0011 Y28.9770
G01 X24.0454 Y28.9682
G01 X24.1425 Y28.9538
G01 X24.1874 Y28.9494
G01 X24.2854 Y28.9446
G01 X24.3306 Y28.9446
G01 X24.4286 Y28.9494
G01 X24.4735 Y28.9538
G01 X24.5706 Y28.9682
G01 X24.6149 Y28.9770
G01 X24.7101 Y29.0008
G01 X24.7533 Y29.0139
G01 X24.8457 Y29.0470
G01 X24.8874 Y29.0643
G01 X24.9761 Y29.1062
G01 X25.0159 Y29.1275
G01 X25.1001 Y29.1780
G01 X25.1376 Y29.2031
G01 X25.2164 Y29.2615
G01 X25.2513 Y29.2902
G01 X25.3240 Y29.3561
G01 X25.3559 Y29.3880
G01 X25.4218 Y29.4607
G01 X25.4505 Y29.4956
G01 X25.5089 Y29.5744
G01 X25.5340 Y29.6119
G01 X25.5845 Y29.6961
G01 X25.6058 Y29.7359
G01 X25.6477 Y29.8246
G01 X25.6650 Y29.8663
G01 X25.6981 Y29.9587
G01 X25.7112 Y30.0019
G01 X25.7350 Y30.0971
G01 X25.7438 Y30.1414
G01 X25.7582 Y30.2385
G01 X25.7626 Y30.2834
G01 X25.7674 Y30.3814
G01 X25.7674 Y30.4266
G01 X25.7626 Y30.5246
G01 X25.7582 Y30.5695
G01 X25.7438 Y30.6666
G01 X25.7350 Y30.7109
G01 X25.7112 Y30.8061
G01 X25.6981 Y30.8493
G01 X25.6650 Y30.9417
G01 X25.6477 Y30.9834
G01 X25.6058 Y31.0721
G01 X25.5845 Y31.1119
G01 X25.5340 Y31.1961
G01 X25.5089 Y31.2336
G01 X25.4505 Y31.3124
G01 X25.4218 Y31.3473
G01 X25.3559 Y31.4200
G01 X25.3240 Y31.4519
G01 X25.2513 Y31.5178
G01 X25.2164 Y31.5465
G01 X25.1376 Y31.6049
G01 X25.1001 Y31.6300
G01 X25.0159 Y31.6805
G01 X24.9761 Y31.7018
G01 X24.8874 Y31.7437
G01 X24.8457 Y31.7610
G01 X24.7533 Y31.7941
G01 X24.7101 Y31.8072
G01 X24.6149 Y31.8310
G01 X24.5706 Y31.8398
G01 X24.4735 Y31.8542
G01 X24.4286 Y31.8586
G01 X24.3306 Y31.8634
G01 X24.2854 Y31.8634
G01 X24.1874 Y31.8586
G01 X24.1425 Y31.8542
G01 X24.0454 Y31.8398
G01 X24.0011 Y31.8310
G01 X23.9059 Y31.8072
G01 X23.8627 Y31.7941
G01 X23.7703 Y31.7610
G01 X23.7286 Y31.7437
G01 X23.6399 Y31.7018
G01 X23.6001 Y31.6805
G01 X23.5159 Y31.6300
G01 X23.4784 Y31.6049
G01 X23.3996 Y31.5465
G01 X23.3647 Y31.5178
G01 X23.3056 Y31.4643
G01 X4.8186 Y31.4643
G01 X4.7831 Y31.4833
G01 X4.6944 Y31.5253
G01 X4.6527 Y31.5425
G01 X4.5603 Y31.5756
G01 X4.5171 Y31.5887
G01 X4.4219 Y31.6125
G01 X4.3776 Y31.6214
G01 X4.2805 Y31.6358
G01 X4.2356 Y31.6402
G01 X4.1376 Y31.6450
G01 X4.0924 Y31.6450
G01 X3.9944 Y31.6402
G01 X3.9495 Y31.6358
G01 X3.8524 Y31.6214
G01 X3.8081 Y31.6125
G01 X3.7129 Y31.5887
G01 X3.6697 Y31.5756
G01 X3.5773 Y31.5425
G01 X3.5356 Y31.5253
G01 X3.4469 Y31.4833
G01 X3.4071 Y31.4620
G01 X3.3229 Y31.4116
G01 X3.2854 Y31.3865
G01 X3.2066 Y31.3280
G01 X3.1717 Y31.2994
G01 X3.0990 Y31.2335
G01 X3.0671 Y31.2016
G01 X3.0012 Y31.1289
G01 X2.9725 Y31.0940
G01 X2.9141 Y31.0151
G01 X2.8890 Y30.9776
G01 X2.8385 Y30.8934
G01 X2.8172 Y30.8536
G01 X2.7753 Y30.7649
G01 X2.7580 Y30.7232
G01 X2.7249 Y30.6308
G01 X2.7118 Y30.5876
G01 X2.6880 Y30.4924
G01 X2.6792 Y30.4481
G01 X2.6648 Y30.3511
G01 X2.6604 Y30.3061
G01 X2.6556 Y30.2081
G01 X2.6556 Y30.1630
G01 X2.6604 Y30.0650
G01 X2.6648 Y30.0200
G01 X2.6792 Y29.9230
G01 X2.6880 Y29.8787
G01 X2.7118 Y29.7835
G01 X2.7249 Y29.7403
G01 X2.7580 Y29.6479
G01 X2.7753 Y29.6062
G01 X2.8172 Y29.5175
G01 X2.8385 Y29.4777
G01 X2.8890 Y29.3935
G01 X2.9141 Y29.3560
G01 X2.9725 Y29.2771
G01 X3.0012 Y29.2422
G01 X3.0671 Y29.1695
G01 X3.0990 Y29.1376
G01 X3.1717 Y29.0717
G01 X3.2066 Y29.0431
G01 X3.2854 Y28.9846
G01 X3.3229 Y28.9595
G01 X3.4071 Y28.9091
G01 X3.4469 Y28.8878
G01 X3.5356 Y28.8458
G01 X3.5773 Y28.8286
G01 X3.6697 Y28.7955
G01 X3.7129 Y28.7824
G01 X3.8081 Y28.7586
G01 X3.8524 Y28.7497
G01 X3.9495 Y28.7353
G01 X3.9944 Y28.7309
G01 X4.0924 Y28.7261
G01 X4.1376 Y28.7261
G01 X4.2356 Y28.7309
G01 X4.2805 Y28.7353
G01 X4.3776 Y28.7497
G01 X4.4219 Y28.7586
G01 X4.5171 Y28.7824
G01 X4.5603 Y28.7955
G01 X4.6527 Y28.8286
G01 X4.6944 Y28.8458
G01 X4.7831 Y28.8878
G01 X4.8229 Y28.9091
G01 X4.9071 Y28.9595
G01 X4.9446 Y28.9846
G01 X5.0234 Y29.0431
G01 X5.0583 Y29.0717
G01 X5.1310 Y29.1376
G01 X5.1629 Y29.1695
G01 X5.2288 Y29.2422
G01 X5.2575 Y29.2771
G01 X5.3069 Y29.3437
G01 X15.4896 Y29.3437
G01 X4.7091 Y18.5631
G00 Z2.0000
G00 X4.6309 Y18.7395
G01 F60.00
G01 Z-0.0900
G01 F120.00
G01 X4.6206 Y18.7390
G01 X4.5581 Y18.7328
G01 X4.4610 Y18.7184
G01 X4.3994 Y18.7062
G01 X4.3042 Y18.6823
G01 X4.2441 Y18.6641
G01 X4.1517 Y18.6310
G01 X4.0937 Y18.6070
G01 X4.0050 Y18.5650
G01 X3.9496 Y18.5354
G01 X3.8654 Y18.4850
G01 X3.8132 Y18.4501
